;FLAVOR:Marlin
;TIME:5474
;Filament used: 3.6689m
;Layer height: 0.2
;MINX:59.5
;MINY:89.5
;MINZ:0.2
;MAXX:175.5
;MAXY:145.5
;MAXZ:6
;Generated with Cura_SteamEngine 4.6.2
M140 S60
M105
M190 S60
M104 S200
M105
M109 S200
M82 ;absolute extrusion mode
; Ender 3 Custom Start G-code
G92 E0 ; Reset Extruder
G28 ; Home all axes
G1 Z2.0 F3000 ; Move Z Axis up little to prevent scratching of Heat Bed
G1 X0.1 Y20 Z0.3 F5000.0 ; Move to start position
G1 X0.1 Y200.0 Z0.3 F1500.0 E15 ; Draw the first line
G1 X0.4 Y200.0 Z0.3 F5000.0 ; Move to side a little
G1 X0.4 Y20 Z0.3 F1500.0 E30 ; Draw the second line
G92 E0 ; Reset Extruder
G1 Z2.0 F3000 ; Move Z Axis up little to prevent scratching of Heat Bed
G1 X5 Y20 Z0.3 F5000.0 ; Move over to prevent blob squish
G92 E0
G92 E0
G1 F1500 E-6.5
;LAYER_COUNT:30
;LAYER:0
M107
G0 F6000 X164.637 Y90.311 Z0.2
;TYPE:SKIRT
G1 F1500 E0
G1 F1200 X165.539 Y90.364 E0.03005
G1 X166.432 Y90.496 E0.06008
G1 X167.31 Y90.707 E0.09011
G1 X168.166 Y90.995 E0.12015
G1 X168.993 Y91.357 E0.15018
G1 X169.785 Y91.792 E0.18023
G1 X170.536 Y92.294 E0.21027
G1 X171.239 Y92.861 E0.24031
G1 X171.889 Y93.488 E0.27035
G1 X172.481 Y94.17 E0.30039
G1 X173.011 Y94.901 E0.33042
G1 X173.473 Y95.677 E0.36046
G1 X173.866 Y96.49 E0.39049
G1 X174.184 Y97.335 E0.42052
G1 X174.427 Y98.205 E0.45056
G1 X174.592 Y99.093 E0.4806
G1 X174.687 Y100.223 E0.51832
G1 X174.7 Y100.83 E0.53851
G1 X174.699 Y133.89 E1.63809
G1 X174.69 Y134.617 E1.66228
G1 X174.639 Y135.519 E1.69233
G1 X174.508 Y136.413 E1.72238
G1 X174.299 Y137.291 E1.7524
G1 X174.013 Y138.148 E1.78244
G1 X173.652 Y138.976 E1.81249
G1 X173.22 Y139.768 E1.84249
G1 X172.719 Y140.52 E1.87255
G1 X172.153 Y141.224 E1.90259
G1 X171.528 Y141.875 E1.93261
G1 X170.847 Y142.469 E1.96266
G1 X170.116 Y143 E1.99271
G1 X169.342 Y143.464 E2.02273
G1 X168.529 Y143.858 E2.05278
G1 X167.685 Y144.178 E2.0828
G1 X166.815 Y144.423 E2.11286
G1 X165.928 Y144.589 E2.14288
G1 X164.777 Y144.687 E2.1813
G1 X164.17 Y144.7 E2.20149
G1 X71.207 Y144.7 E5.29345
G1 X70.377 Y144.69 E5.32106
G1 X69.476 Y144.639 E5.35107
G1 X68.582 Y144.507 E5.38113
G1 X67.704 Y144.298 E5.41115
G1 X66.847 Y144.011 E5.44121
G1 X66.02 Y143.65 E5.47122
G1 X65.227 Y143.217 E5.50127
G1 X64.476 Y142.716 E5.5313
G1 X63.772 Y142.15 E5.56134
G1 X63.121 Y141.524 E5.59138
G1 X62.528 Y140.843 E5.62142
G1 X61.998 Y140.112 E5.65145
G1 X61.534 Y139.337 E5.68149
G1 X61.14 Y138.524 E5.71154
G1 X60.82 Y137.68 E5.74156
G1 X60.576 Y136.81 E5.77161
G1 X60.41 Y135.922 E5.80166
G1 X60.313 Y134.767 E5.84021
G1 X60.3 Y134.158 E5.86047
G1 X60.301 Y101.036 E6.96211
G1 X60.31 Y100.371 E6.98423
G1 X60.362 Y99.469 E7.01428
G1 X60.494 Y98.576 E7.04431
G1 X60.704 Y97.698 E7.07433
G1 X60.991 Y96.841 E7.10439
G1 X61.353 Y96.014 E7.13442
G1 X61.786 Y95.222 E7.16444
G1 X62.288 Y94.471 E7.19449
G1 X62.855 Y93.767 E7.22455
G1 X63.481 Y93.117 E7.25457
G1 X64.162 Y92.524 E7.2846
G1 X64.894 Y91.994 E7.31466
G1 X65.669 Y91.531 E7.34469
G1 X66.482 Y91.138 E7.37472
G1 X67.327 Y90.818 E7.40477
G1 X68.196 Y90.575 E7.43478
G1 X69.084 Y90.409 E7.46483
G1 X70.223 Y90.313 E7.50285
G1 X70.83 Y90.3 E7.52304
G1 X163.793 Y90.3 E10.615
G1 X163.939 Y90.301 E10.61986
G1 X164.637 Y90.311 E10.64308
G0 F6000 X164.643 Y89.911
G1 F1200 X165.562 Y89.964 E10.67369
G1 X166.473 Y90.097 E10.70432
G1 X167.369 Y90.308 E10.73493
G1 X168.243 Y90.596 E10.76554
G1 X169.09 Y90.959 E10.79619
G1 X169.901 Y91.394 E10.8268
G1 X170.671 Y91.898 E10.85741
G1 X171.395 Y92.467 E10.88803
G1 X172.067 Y93.097 E10.91867
G1 X172.682 Y93.782 E10.94929
G1 X173.235 Y94.518 E10.97991
G1 X173.722 Y95.299 E11.01052
G1 X174.139 Y96.12 E11.04115
G1 X174.484 Y96.974 E11.07178
G1 X174.753 Y97.854 E11.10239
G1 X174.945 Y98.755 E11.13303
G1 X175.058 Y99.668 E11.16363
G1 X175.087 Y100.212 E11.18174
G1 X175.1 Y100.83 E11.2023
G1 X175.099 Y133.895 E12.30205
G1 X175.09 Y134.622 E12.32623
G1 X175.039 Y135.541 E12.35685
G1 X174.908 Y136.453 E12.38749
G1 X174.698 Y137.349 E12.4181
G1 X174.412 Y138.224 E12.44872
G1 X174.051 Y139.071 E12.47934
G1 X173.617 Y139.883 E12.50996
G1 X173.115 Y140.655 E12.54059
G1 X172.547 Y141.38 E12.57122
G1 X171.919 Y142.053 E12.60184
G1 X171.235 Y142.669 E12.63246
G1 X170.5 Y143.223 E12.66307
G1 X169.72 Y143.712 E12.69369
G1 X168.9 Y144.131 E12.72431
G1 X168.047 Y144.477 E12.75493
G1 X167.167 Y144.748 E12.78556
G1 X166.267 Y144.941 E12.81617
G1 X165.353 Y145.056 E12.84681
G1 X164.788 Y145.087 E12.86563
G1 X164.17 Y145.1 E12.88619
G1 X71.207 Y145.1 E15.97815
G1 X70.372 Y145.09 E16.00593
G1 X69.453 Y145.038 E16.03654
G1 X68.542 Y144.907 E16.06715
G1 X67.646 Y144.697 E16.09776
G1 X66.771 Y144.41 E16.12839
G1 X65.924 Y144.048 E16.15903
G1 X65.112 Y143.614 E16.18965
G1 X64.341 Y143.112 E16.22025
G1 X63.616 Y142.544 E16.25088
G1 X62.943 Y141.915 E16.28152
G1 X62.328 Y141.231 E16.31211
G1 X61.774 Y140.496 E16.34273
G1 X61.286 Y139.715 E16.37336
G1 X60.867 Y138.895 E16.40398
G1 X60.521 Y138.042 E16.4346
G1 X60.251 Y137.162 E16.46522
G1 X60.058 Y136.261 E16.49586
G1 X59.944 Y135.348 E16.52647
G1 X59.913 Y134.777 E16.54548
G1 X59.9 Y134.158 E16.56608
G1 X59.901 Y101.031 E17.66789
G1 X59.91 Y100.366 E17.69001
G1 X59.962 Y99.446 E17.72065
G1 X60.094 Y98.535 E17.75127
G1 X60.305 Y97.639 E17.78189
G1 X60.592 Y96.764 E17.81251
G1 X60.955 Y95.918 E17.84313
G1 X61.389 Y95.106 E17.87376
G1 X61.892 Y94.335 E17.90437
G1 X62.461 Y93.611 E17.935
G1 X63.089 Y92.939 E17.96559
G1 X63.774 Y92.323 E17.99623
G1 X64.51 Y91.77 E18.02685
G1 X65.291 Y91.282 E18.05748
G1 X66.111 Y90.864 E18.0881
G1 X66.965 Y90.519 E18.11873
G1 X67.845 Y90.249 E18.14935
G1 X68.745 Y90.057 E18.17995
G1 X69.659 Y89.943 E18.21059
G1 X70.212 Y89.913 E18.22901
G1 X70.83 Y89.9 E18.24957
G1 X163.793 Y89.9 E21.34153
G1 X163.945 Y89.901 E21.34659
G1 X164.643 Y89.911 E21.3698
G0 F6000 X164.649 Y89.511
G1 F1200 X165.585 Y89.565 E21.40099
G1 X166.513 Y89.697 E21.43216
G1 X167.427 Y89.909 E21.46337
G1 X168.319 Y90.198 E21.49456
G1 X169.184 Y90.561 E21.52576
G1 X170.014 Y90.997 E21.55694
G1 X170.805 Y91.502 E21.58815
G1 X171.549 Y92.073 E21.61935
G1 X172.242 Y92.705 E21.65054
G1 X172.879 Y93.393 E21.68173
G1 X173.454 Y94.134 E21.71292
G1 X173.965 Y94.92 E21.7441
G1 X174.407 Y95.748 E21.77532
G1 X174.776 Y96.61 E21.80651
G1 X175.071 Y97.5 E21.83769
G1 X175.289 Y98.412 E21.86888
G1 X175.429 Y99.34 E21.9001
G1 X175.487 Y100.201 E21.9288
G1 X175.5 Y100.83 E21.94972
G1 X175.499 Y133.9 E23.04963
G1 X175.49 Y134.627 E23.07382
G1 X175.439 Y135.564 E23.10503
G1 X175.307 Y136.492 E23.1362
G1 X175.098 Y137.406 E23.16739
G1 X174.811 Y138.299 E23.19859
G1 X174.449 Y139.165 E23.2298
G1 X174.015 Y139.996 E23.26099
G1 X173.511 Y140.787 E23.29218
G1 X172.942 Y141.532 E23.32336
G1 X172.311 Y142.227 E23.35458
G1 X171.624 Y142.865 E23.38577
G1 X170.885 Y143.442 E23.41695
G1 X170.099 Y143.954 E23.44815
G1 X169.273 Y144.397 E23.47932
G1 X168.411 Y144.769 E23.51055
G1 X167.522 Y145.065 E23.54171
G1 X166.61 Y145.285 E23.57292
G1 X165.683 Y145.426 E23.6041
G1 X164.799 Y145.487 E23.63358
G1 X164.17 Y145.5 E23.6545
G1 X71.207 Y145.5 E26.74646
G1 X70.367 Y145.49 E26.7744
G1 X69.431 Y145.438 E26.80558
G1 X68.502 Y145.306 E26.83679
G1 X67.588 Y145.096 E26.86798
G1 X66.695 Y144.809 E26.89918
G1 X65.83 Y144.446 E26.93038
G1 X64.999 Y144.012 E26.96156
G1 X64.208 Y143.508 E26.99276
G1 X63.463 Y142.938 E27.02396
G1 X62.769 Y142.307 E27.05516
G1 X62.132 Y141.62 E27.08632
G1 X61.555 Y140.88 E27.11753
G1 X61.043 Y140.094 E27.14873
G1 X60.6 Y139.267 E27.17993
G1 X60.229 Y138.406 E27.21111
G1 X59.933 Y137.516 E27.24231
G1 X59.714 Y136.604 E27.2735
G1 X59.573 Y135.677 E27.30469
G1 X59.513 Y134.788 E27.33433
G1 X59.5 Y134.158 E27.35528
G1 X59.501 Y101.025 E28.45729
G1 X59.51 Y100.36 E28.47941
G1 X59.563 Y99.424 E28.51059
G1 X59.695 Y98.495 E28.5418
G1 X59.906 Y97.581 E28.573
G1 X60.194 Y96.689 E28.60418
G1 X60.557 Y95.824 E28.63538
G1 X60.992 Y94.993 E28.66658
G1 X61.496 Y94.203 E28.69774
G1 X62.066 Y93.458 E28.72894
G1 X62.698 Y92.764 E28.76016
G1 X63.386 Y92.127 E28.79135
G1 X64.126 Y91.551 E28.82254
G1 X64.912 Y91.039 E28.85374
G1 X65.739 Y90.597 E28.88492
G1 X66.601 Y90.227 E28.91612
G1 X67.491 Y89.931 E28.94732
G1 X68.403 Y89.713 E28.97851
G1 X69.33 Y89.572 E29.0097
G1 X70.201 Y89.513 E29.03873
G1 X70.83 Y89.5 E29.05966
G1 X163.793 Y89.5 E32.15162
G1 X163.951 Y89.501 E32.15687
G1 X164.649 Y89.511 E32.18009
G1 F1500 E25.68009
;MESH:Shanshan Name Plate v0.stl
G0 F6000 X163.69 Y99.835
G0 X163.69 Y101.31
G0 X163.718 Y133.718
G0 X71.1 Y133.9
;TYPE:WALL-INNER
G1 F1500 E32.18009
G1 F1200 X71.1 Y101.1 E33.27102
G1 X163.9 Y101.1 E36.35756
G1 X163.9 Y133.9 E37.4485
G1 X71.1 Y133.9 E40.53504
G0 F6000 X70.7 Y134.3
;TYPE:WALL-OUTER
G1 F1200 X70.7 Y100.7 E41.65258
G1 X164.3 Y100.7 E44.76573
G1 X164.3 Y134.3 E45.88327
G1 X70.7 Y134.3 E48.99642
G0 F6000 X70.97 Y134.03
G0 X71.21 Y133.51
G0 X71.49 Y133.51
;TYPE:SKIN
G1 F1200 X71.49 Y101.49 E50.0614
G1 X163.51 Y101.49 E53.122
G1 X163.51 Y133.51 E54.18699
G1 X71.49 Y133.51 E57.24759
G0 F6000 X72.254 Y133.349
G1 F1200 X71.649 Y132.743 E57.27607
G0 F6000 X71.649 Y132.178
G1 F1200 X72.82 Y133.349 E57.33115
G0 F6000 X73.386 Y133.349
G1 F1200 X71.649 Y131.612 E57.41285
G0 F6000 X71.649 Y131.046
G1 F1200 X73.952 Y133.349 E57.52118
G0 F6000 X74.517 Y133.349
G1 F1200 X71.649 Y130.481 E57.65608
G0 F6000 X71.649 Y129.915
G1 F1200 X75.083 Y133.349 E57.81761
G0 F6000 X75.649 Y133.349
G1 F1200 X71.649 Y129.349 E58.00575
G0 F6000 X71.649 Y128.783
G1 F1200 X76.214 Y133.349 E58.2205
G0 F6000 X76.78 Y133.349
G1 F1200 X71.649 Y128.218 E58.46185
G0 F6000 X71.649 Y127.652
G1 F1200 X77.346 Y133.349 E58.72982
G0 F6000 X77.911 Y133.349
G1 F1200 X71.649 Y127.086 E59.02439
G0 F6000 X71.649 Y126.521
G1 F1200 X78.477 Y133.349 E59.34555
G0 F6000 X79.043 Y133.349
G1 F1200 X71.649 Y125.955 E59.69335
G0 F6000 X71.649 Y125.389
G1 F1200 X79.608 Y133.349 E60.06774
G0 F6000 X80.174 Y133.349
G1 F1200 X71.649 Y124.824 E60.46873
G0 F6000 X71.649 Y124.258
G1 F1200 X80.74 Y133.349 E60.89634
G0 F6000 X81.305 Y133.349
G1 F1200 X71.649 Y123.692 E61.35055
G0 F6000 X71.649 Y123.127
G1 F1200 X81.871 Y133.349 E61.83136
G0 F6000 X82.437 Y133.349
G1 F1200 X71.649 Y122.561 E62.3388
G0 F6000 X71.649 Y121.995
G1 F1200 X83.003 Y133.349 E62.87285
G0 F6000 X83.568 Y133.349
G1 F1200 X71.649 Y121.43 E63.43349
G0 F6000 X71.649 Y120.864
G1 F1200 X84.134 Y133.349 E64.02074
G0 F6000 X84.7 Y133.349
G1 F1200 X71.649 Y120.298 E64.63462
G0 F6000 X71.649 Y119.732
G1 F1200 X85.265 Y133.349 E65.2751
G0 F6000 X85.831 Y133.349
G1 F1200 X71.649 Y119.167 E65.94218
G0 F6000 X71.649 Y118.601
G1 F1200 X86.397 Y133.349 E66.63588
G0 F6000 X86.962 Y133.349
G1 F1200 X71.649 Y118.035 E67.35618
G0 F6000 X71.649 Y117.47
G1 F1200 X87.528 Y133.349 E68.10308
G0 F6000 X88.094 Y133.349
G1 F1200 X71.649 Y116.904 E68.8766
G0 F6000 X71.649 Y116.338
G1 F1200 X88.659 Y133.349 E69.67672
G0 F6000 X89.225 Y133.349
G1 F1200 X71.649 Y115.773 E70.50344
G0 F6000 X71.649 Y115.207
G1 F1200 X89.791 Y133.349 E71.35679
G0 F6000 X90.356 Y133.349
G1 F1200 X71.649 Y114.641 E72.23673
G0 F6000 X71.649 Y114.076
G1 F1200 X90.922 Y133.349 E73.14327
G0 F6000 X91.488 Y133.349
G1 F1200 X71.649 Y113.51 E74.07644
G0 F6000 X71.649 Y112.944
G1 F1200 X92.053 Y133.349 E75.03621
G0 F6000 X92.619 Y133.349
G1 F1200 X71.649 Y112.379 E76.02257
G0 F6000 X71.649 Y111.813
G1 F1200 X93.185 Y133.349 E77.03556
G0 F6000 X93.751 Y133.349
G1 F1200 X71.649 Y111.247 E78.07517
G0 F6000 X71.649 Y110.682
G1 F1200 X94.316 Y133.349 E79.14135
G0 F6000 X94.882 Y133.349
G1 F1200 X71.649 Y110.116 E80.23416
G0 F6000 X71.649 Y109.55
G1 F1200 X95.448 Y133.349 E81.3536
G0 F6000 X96.013 Y133.349
G1 F1200 X71.649 Y108.984 E82.49963
G0 F6000 X71.649 Y108.419
G1 F1200 X96.579 Y133.349 E83.67226
G0 F6000 X97.145 Y133.349
G1 F1200 X71.649 Y107.853 E84.87151
G0 F6000 X71.649 Y107.287
G1 F1200 X97.71 Y133.349 E86.09736
G0 F6000 X98.276 Y133.349
G1 F1200 X71.649 Y106.722 E87.34982
G0 F6000 X71.649 Y106.156
G1 F1200 X98.842 Y133.349 E88.62889
G0 F6000 X99.407 Y133.349
G1 F1200 X71.649 Y105.59 E89.93457
G0 F6000 X71.649 Y105.025
G1 F1200 X99.973 Y133.349 E91.26684
G0 F6000 X100.539 Y133.349
G1 F1200 X71.649 Y104.459 E92.62574
G0 F6000 X71.649 Y103.893
G1 F1200 X101.104 Y133.349 E94.01123
G0 F6000 X101.67 Y133.349
G1 F1200 X71.649 Y103.328 E95.42333
G0 F6000 X71.649 Y102.762
G1 F1200 X102.236 Y133.349 E96.86205
G0 F6000 X102.802 Y133.349
G1 F1200 X71.649 Y102.196 E98.32739
G0 F6000 X71.668 Y101.65
G1 F1200 X103.367 Y133.349 E99.81841
G0 F6000 X103.933 Y133.349
G1 F1200 X72.234 Y101.65 E101.30944
G0 F6000 X72.8 Y101.65
G1 F1200 X104.499 Y133.349 E102.80046
G0 F6000 X105.064 Y133.349
G1 F1200 X73.365 Y101.65 E104.29149
G0 F6000 X73.931 Y101.65
G1 F1200 X105.63 Y133.349 E105.78251
G0 F6000 X106.196 Y133.349
G1 F1200 X74.497 Y101.65 E107.27353
G0 F6000 X75.062 Y101.65
G1 F1200 X106.761 Y133.349 E108.76456
G0 F6000 X107.327 Y133.349
G1 F1200 X75.628 Y101.65 E110.25558
G0 F6000 X76.194 Y101.65
G1 F1200 X107.893 Y133.349 E111.7466
G0 F6000 X108.458 Y133.349
G1 F1200 X76.759 Y101.65 E113.23763
G0 F6000 X77.325 Y101.65
G1 F1200 X109.024 Y133.349 E114.72865
G0 F6000 X109.59 Y133.349
G1 F1200 X77.891 Y101.65 E116.21968
G0 F6000 X78.457 Y101.65
G1 F1200 X110.155 Y133.349 E117.71068
G0 F6000 X110.721 Y133.349
G1 F1200 X79.022 Y101.65 E119.2017
G0 F6000 X79.588 Y101.65
G1 F1200 X111.287 Y133.349 E120.69272
G0 F6000 X111.852 Y133.349
G1 F1200 X80.154 Y101.65 E122.18372
G0 F6000 X80.719 Y101.65
G1 F1200 X112.418 Y133.349 E123.67475
G0 F6000 X112.984 Y133.349
G1 F1200 X81.285 Y101.65 E125.16577
G0 F6000 X81.851 Y101.65
G1 F1200 X113.55 Y133.349 E126.65679
G0 F6000 X114.115 Y133.349
G1 F1200 X82.416 Y101.65 E128.14782
G0 F6000 X82.982 Y101.65
G1 F1200 X114.681 Y133.349 E129.63884
G0 F6000 X115.247 Y133.349
G1 F1200 X83.548 Y101.65 E131.12987
G0 F6000 X84.113 Y101.65
G1 F1200 X115.812 Y133.349 E132.62089
G0 F6000 X116.378 Y133.349
G1 F1200 X84.679 Y101.65 E134.11191
G0 F6000 X85.245 Y101.65
G1 F1200 X116.944 Y133.349 E135.60294
G0 F6000 X117.509 Y133.349
G1 F1200 X85.81 Y101.65 E137.09396
G0 F6000 X86.376 Y101.65
G1 F1200 X118.075 Y133.349 E138.58499
G0 F6000 X118.641 Y133.349
G1 F1200 X86.942 Y101.65 E140.07601
G0 F6000 X87.507 Y101.65
G1 F1200 X119.206 Y133.349 E141.56703
G0 F6000 X119.772 Y133.349
G1 F1200 X88.073 Y101.65 E143.05806
G0 F6000 X88.639 Y101.65
G1 F1200 X120.338 Y133.349 E144.54908
G0 F6000 X120.903 Y133.349
G1 F1200 X89.205 Y101.65 E146.04008
G0 F6000 X89.77 Y101.65
G1 F1200 X121.469 Y133.349 E147.5311
G0 F6000 X122.035 Y133.349
G1 F1200 X90.336 Y101.65 E149.02213
G0 F6000 X90.902 Y101.65
G1 F1200 X122.601 Y133.349 E150.51315
G0 F6000 X123.166 Y133.349
G1 F1200 X91.467 Y101.65 E152.00418
G0 F6000 X92.033 Y101.65
G1 F1200 X123.732 Y133.349 E153.4952
G0 F6000 X124.298 Y133.349
G1 F1200 X92.599 Y101.65 E154.98622
G0 F6000 X93.164 Y101.65
G1 F1200 X124.863 Y133.349 E156.47725
G0 F6000 X125.429 Y133.349
G1 F1200 X93.73 Y101.65 E157.96827
G0 F6000 X94.296 Y101.65
G1 F1200 X125.995 Y133.349 E159.45929
G0 F6000 X126.56 Y133.349
G1 F1200 X94.861 Y101.65 E160.95032
G0 F6000 X95.427 Y101.65
G1 F1200 X127.126 Y133.349 E162.44134
G0 F6000 X127.692 Y133.349
G1 F1200 X95.993 Y101.65 E163.93237
G0 F6000 X96.558 Y101.65
G1 F1200 X128.257 Y133.349 E165.42339
G0 F6000 X128.823 Y133.349
G1 F1200 X97.124 Y101.65 E166.91441
G0 F6000 X97.69 Y101.65
G1 F1200 X129.389 Y133.349 E168.40544
G0 F6000 X129.954 Y133.349
G1 F1200 X98.256 Y101.65 E169.89644
G0 F6000 X98.821 Y101.65
G1 F1200 X130.52 Y133.349 E171.38746
G0 F6000 X131.086 Y133.349
G1 F1200 X99.387 Y101.65 E172.87848
G0 F6000 X99.953 Y101.65
G1 F1200 X131.651 Y133.349 E174.36949
G0 F6000 X132.217 Y133.349
G1 F1200 X100.518 Y101.65 E175.86051
G0 F6000 X101.084 Y101.65
G1 F1200 X132.783 Y133.349 E177.35153
G0 F6000 X133.349 Y133.349
G1 F1200 X101.65 Y101.65 E178.84256
G0 F6000 X102.215 Y101.65
G1 F1200 X133.914 Y133.349 E180.33358
G0 F6000 X134.48 Y133.349
G1 F1200 X102.781 Y101.65 E181.8246
G0 F6000 X103.347 Y101.65
G1 F1200 X135.046 Y133.349 E183.31563
G0 F6000 X135.611 Y133.349
G1 F1200 X103.912 Y101.65 E184.80665
G0 F6000 X104.478 Y101.65
