;FLAVOR:Marlin
;TIME:12944
;Filament used: 14.5317m
;Layer height: 0.2
;MINX:61.501
;MINY:24.5
;MINZ:0.2
;MAXX:173.499
;MAXY:210.499
;MAXZ:18
;Generated with Cura_SteamEngine 4.6.2
M140 S60
M105
M190 S60
M104 S200
M105
M109 S200
M82 ;absolute extrusion mode
; Ender 3 Custom Start G-code
G92 E0 ; Reset Extruder
G28 ; Home all axes
G1 Z2.0 F3000 ; Move Z Axis up little to prevent scratching of Heat Bed
G1 X0.1 Y20 Z0.3 F5000.0 ; Move to start position
G1 X0.1 Y200.0 Z0.3 F1500.0 E15 ; Draw the first line
G1 X0.4 Y200.0 Z0.3 F5000.0 ; Move to side a little
G1 X0.4 Y20 Z0.3 F1500.0 E30 ; Draw the second line
G92 E0 ; Reset Extruder
G1 Z2.0 F3000 ; Move Z Axis up little to prevent scratching of Heat Bed
G1 X5 Y20 Z0.3 F5000.0 ; Move over to prevent blob squish
G92 E0
G92 E0
G1 F1500 E-6.5
;LAYER_COUNT:90
;LAYER:0
M107
G0 F6000 X159.643 Y25.311 Z0.2
;TYPE:SKIRT
G1 F1500 E0
G1 F1200 X160.3 Y25.341 E0.02187
G1 X160.77 Y25.378 E0.03756
G1 X161.666 Y25.489 E0.06758
G1 X162.355 Y25.63 E0.09098
G1 X162.808 Y25.739 E0.10647
G1 X163.676 Y25.989 E0.13652
G1 X164.316 Y26.228 E0.15924
G1 X164.747 Y26.406 E0.17475
G1 X165.565 Y26.788 E0.20477
G1 X166.162 Y27.125 E0.22758
G1 X166.559 Y27.367 E0.24304
G1 X167.309 Y27.87 E0.27308
G1 X167.862 Y28.31 E0.29658
G1 X168.212 Y28.608 E0.31187
G1 X168.873 Y29.223 E0.3419
G1 X169.304 Y29.689 E0.36301
G1 X169.599 Y30.029 E0.37798
G1 X170.16 Y30.737 E0.40803
G1 X170.534 Y31.291 E0.43026
G1 X170.792 Y31.702 E0.4464
G1 X171.238 Y32.487 E0.47643
G1 X171.536 Y33.125 E0.49985
G1 X171.721 Y33.559 E0.51554
G1 X172.038 Y34.405 E0.54559
G1 X172.246 Y35.135 E0.57083
G1 X172.361 Y35.605 E0.58693
G1 X172.536 Y36.491 E0.61697
G1 X172.621 Y37.218 E0.64131
G1 X172.658 Y37.682 E0.65679
G1 X172.691 Y38.337 E0.67861
G1 X172.698 Y38.711 E0.69105
G1 X172.699 Y85.937 E2.26179
G1 X172.689 Y86.643 E2.28527
G1 X172.658 Y87.303 E2.30725
G1 X172.621 Y87.771 E2.32286
G1 X172.51 Y88.667 E2.35289
G1 X172.374 Y89.337 E2.37563
G1 X172.266 Y89.789 E2.39109
G1 X172.017 Y90.658 E2.42116
G1 X171.772 Y91.313 E2.44441
G1 X171.589 Y91.756 E2.46036
G1 X171.416 Y92.153 E2.47476
G1 X171.046 Y92.951 E2.50402
G1 X170.017 Y95.253 E2.58788
G1 X169.023 Y97.655 E2.67434
G1 X168.138 Y99.986 E2.75727
G1 X167.296 Y102.399 E2.84227
G1 X166.525 Y104.828 E2.92704
G1 X165.838 Y107.231 E3.01016
G1 X165.201 Y109.715 E3.09545
G1 X164.629 Y112.237 E3.18147
G1 X164.153 Y114.676 E3.26412
G1 X163.734 Y117.179 E3.34853
G1 X163.384 Y119.709 E3.43348
G1 X163.108 Y122.223 E3.51759
G1 X162.902 Y124.765 E3.60242
G1 X162.77 Y127.281 E3.68622
G1 X162.701 Y130.843 E3.80471
G1 X162.7 Y195.794 E5.96499
G1 X162.699 Y195.938 E5.96978
G1 X162.689 Y196.644 E5.99326
G1 X162.658 Y197.306 E6.01531
G1 X162.621 Y197.773 E6.03089
G1 X162.51 Y198.669 E6.06092
G1 X162.374 Y199.337 E6.08359
G1 X162.266 Y199.789 E6.09905
G1 X162.017 Y200.658 E6.12911
G1 X161.773 Y201.311 E6.1523
G1 X161.593 Y201.747 E6.16799
G1 X161.212 Y202.566 E6.19803
G1 X160.872 Y203.168 E6.22103
G1 X160.631 Y203.563 E6.23642
G1 X160.127 Y204.312 E6.26644
G1 X159.695 Y204.857 E6.28957
G1 X159.394 Y205.211 E6.30503
G1 X158.779 Y205.873 E6.33508
G1 X158.299 Y206.316 E6.35681
G1 X157.964 Y206.606 E6.37154
G1 X157.256 Y207.166 E6.40157
G1 X156.707 Y207.535 E6.42357
G1 X156.294 Y207.794 E6.43978
G1 X155.509 Y208.24 E6.46981
G1 X154.875 Y208.536 E6.49308
G1 X154.441 Y208.721 E6.50877
G1 X153.595 Y209.038 E6.53882
G1 X152.866 Y209.246 E6.56404
G1 X152.392 Y209.362 E6.58027
G1 X151.506 Y209.537 E6.61031
G1 X150.746 Y209.624 E6.63575
G1 X150.276 Y209.66 E6.65143
G1 X149.664 Y209.689 E6.6718
G1 X148.949 Y209.699 E6.69559
G1 X114.064 Y209.699 E7.85587
G1 X113.359 Y209.689 E7.87932
G1 X112.709 Y209.659 E7.90096
G1 X112.236 Y209.622 E7.91674
G1 X111.339 Y209.512 E7.9468
G1 X110.645 Y209.37 E7.97036
G1 X110.192 Y209.261 E7.98586
G1 X109.324 Y209.011 E8.0159
G1 X108.681 Y208.77 E8.03874
G1 X108.248 Y208.591 E8.05432
G1 X107.43 Y208.21 E8.08434
G1 X106.824 Y207.867 E8.1075
G1 X106.425 Y207.623 E8.12305
G1 X105.676 Y207.118 E8.1531
G1 X105.141 Y206.693 E8.17582
G1 X104.788 Y206.393 E8.19123
G1 X104.126 Y205.779 E8.22126
G1 X103.658 Y205.27 E8.24426
G1 X103.37 Y204.935 E8.25895
G1 X102.813 Y204.225 E8.28897
G1 X102.466 Y203.709 E8.30965
G1 X102.208 Y203.298 E8.32579
G1 X101.762 Y202.513 E8.35582
G1 X101.464 Y201.875 E8.37924
G1 X101.279 Y201.441 E8.39493
G1 X100.962 Y200.595 E8.42498
G1 X100.753 Y199.861 E8.45036
G1 X100.637 Y199.386 E8.46662
G1 X100.406 Y198.067 E8.51116
G1 X100.262 Y196.737 E8.55566
G1 X99.983 Y194.432 E8.63288
G1 X99.607 Y191.896 E8.71815
G1 X99.162 Y189.394 E8.80267
G1 X98.647 Y186.903 E8.88728
G1 X98.063 Y184.432 E8.97173
G1 X97.413 Y181.994 E9.05565
G1 X96.682 Y179.536 E9.14094
G1 X95.892 Y177.13 E9.22517
G1 X95.032 Y174.74 E9.30965
G1 X94.109 Y172.387 E9.39372
G1 X93.113 Y170.044 E9.47839
G1 X92.05 Y167.728 E9.56315
G1 X90.935 Y165.47 E9.64691
G1 X89.738 Y163.209 E9.732
G1 X88.489 Y161.003 E9.81631
G1 X87.169 Y158.82 E9.90116
G1 X85.797 Y156.686 E9.98554
G1 X84.375 Y154.607 E10.06932
G1 X82.88 Y152.55 E10.1539
G1 X81.313 Y150.517 E10.23927
G1 X79.722 Y148.568 E10.32295
G1 X77.961 Y146.533 E10.41246
G1 X77.086 Y145.532 E10.45668
G1 X76.808 Y145.198 E10.47113
G1 X76.423 Y144.705 E10.49193
G1 X75.986 Y144.103 E10.51668
G1 X75.723 Y143.723 E10.53205
G1 X75.452 Y143.311 E10.54845
G1 X75.267 Y143.014 E10.56009
G1 X75.085 Y142.71 E10.57187
G1 X74.876 Y142.347 E10.5858
G1 X74.636 Y141.904 E10.60256
G1 X74.483 Y141.605 E10.61373
G1 X74.335 Y141.304 E10.62489
G1 X74.133 Y140.875 E10.64066
G1 X73.965 Y140.498 E10.65439
G1 X73.859 Y140.247 E10.66345
G1 X73.716 Y139.89 E10.67624
G1 X73.518 Y139.367 E10.69484
G1 X73.335 Y138.842 E10.71333
G1 X73.154 Y138.261 E10.73357
G1 X73.026 Y137.816 E10.74897
G1 X72.892 Y137.298 E10.76677
G1 X72.752 Y136.675 E10.78801
G1 X72.656 Y136.203 E10.80403
G1 X72.55 Y135.585 E10.82488
G1 X72.465 Y134.951 E10.84616
G1 X72.412 Y134.482 E10.86186
G1 X72.364 Y133.925 E10.88045
G1 X72.333 Y133.33 E10.90027
G1 X72.308 Y132.538 E10.92662
G1 X72.303 Y132.216 E10.93733
G1 X72.303 Y130.832 E10.98337
G1 X72.266 Y128.226 E11.07005
G1 X72.157 Y125.66 E11.15547
G1 X71.979 Y123.153 E11.23907
G1 X71.728 Y120.612 E11.32399
G1 X71.407 Y118.105 E11.40805
G1 X71.013 Y115.6 E11.4924
G1 X70.551 Y113.113 E11.57653
G1 X70.017 Y110.632 E11.66094
G1 X69.407 Y108.144 E11.74614
G1 X68.731 Y105.685 E11.83096
G1 X67.993 Y103.274 E11.91482
G1 X67.182 Y100.872 E11.99914
G1 X66.292 Y98.459 E12.08469
G1 X65.355 Y96.125 E12.16834
G1 X64.342 Y93.796 E12.25281
G1 X63.831 Y92.701 E12.293
G1 X63.472 Y91.905 E12.32204
G1 X63.283 Y91.458 E12.33819
G1 X63.176 Y91.187 E12.34788
G1 X62.882 Y90.333 E12.37792
G1 X62.759 Y89.881 E12.3935
G1 X62.642 Y89.406 E12.40977
G1 X62.465 Y88.52 E12.43982
G1 X62.376 Y87.747 E12.4657
G1 X62.34 Y87.278 E12.48134
G1 X62.311 Y86.665 E12.50175
G1 X62.301 Y85.95 E12.52554
G1 X62.301 Y39.065 E14.08494
G1 X62.311 Y38.35 E14.10872
G1 X62.343 Y37.677 E14.13113
G1 X62.38 Y37.216 E14.14651
G1 X62.492 Y36.32 E14.17655
G1 X62.627 Y35.657 E14.19905
G1 X62.735 Y35.206 E14.21447
G1 X62.984 Y34.337 E14.24454
G1 X63.227 Y33.689 E14.26756
G1 X63.407 Y33.253 E14.28325
G1 X63.788 Y32.434 E14.31329
G1 X64.128 Y31.832 E14.33629
G1 X64.369 Y31.437 E14.35168
G1 X64.873 Y30.688 E14.3817
G1 X65.309 Y30.139 E14.40502
G1 X65.612 Y29.783 E14.42057
G1 X66.227 Y29.122 E14.4506
G1 X66.716 Y28.671 E14.47272
G1 X67.051 Y28.382 E14.48744
G1 X67.761 Y27.823 E14.51749
G1 X68.285 Y27.47 E14.53851
G1 X68.697 Y27.211 E14.55469
G1 X69.483 Y26.764 E14.58477
G1 X70.137 Y26.458 E14.60878
G1 X70.57 Y26.274 E14.62443
G1 X71.416 Y25.958 E14.65447
G1 X72.139 Y25.753 E14.67946
G1 X72.614 Y25.637 E14.69573
G1 X73.5 Y25.462 E14.72577
G1 X74.253 Y25.376 E14.75097
G1 X74.722 Y25.34 E14.76662
G1 X75.335 Y25.311 E14.78703
G1 X76.05 Y25.301 E14.81081
G1 X158.793 Y25.3 E17.56286
G1 X158.937 Y25.301 E17.56765
G1 X159.643 Y25.311 E17.59113
G0 F6000 X159.649 Y24.911
G1 F1200 X160.331 Y24.943 E17.61384
G1 X160.801 Y24.98 E17.62952
G1 X161.715 Y25.092 E17.66015
G1 X162.449 Y25.241 E17.68506
G1 X162.902 Y25.35 E17.70055
G1 X163.787 Y25.604 E17.73118
G1 X164.468 Y25.859 E17.75536
G1 X164.899 Y26.037 E17.77087
G1 X165.734 Y26.425 E17.8015
G1 X166.37 Y26.783 E17.82577
G1 X166.767 Y27.025 E17.84123
G1 X167.532 Y27.538 E17.87187
G1 X168.122 Y28.005 E17.8969
G1 X168.472 Y28.303 E17.91219
G1 X169.146 Y28.93 E17.9428
G1 X169.606 Y29.427 E17.96533
G1 X169.901 Y29.767 E17.9803
G1 X170.474 Y30.488 E18.01093
G1 X170.873 Y31.078 E18.03462
G1 X171.131 Y31.489 E18.05076
G1 X171.586 Y32.29 E18.0814
G1 X171.904 Y32.968 E18.10631
G1 X172.089 Y33.402 E18.122
G1 X172.413 Y34.264 E18.15263
G1 X172.634 Y35.04 E18.17946
G1 X172.749 Y35.51 E18.19556
G1 X172.929 Y36.413 E18.22618
G1 X173.019 Y37.186 E18.25207
G1 X173.056 Y37.65 E18.26755
G1 X173.091 Y38.322 E18.28993
G1 X173.098 Y38.711 E18.30287
G1 X173.099 Y85.943 E19.87381
G1 X173.089 Y86.649 E19.8973
G1 X173.057 Y87.334 E19.9201
G1 X173.02 Y87.802 E19.93572
G1 X172.908 Y88.716 E19.96634
G1 X172.763 Y89.43 E19.99058
G1 X172.655 Y89.882 E20.00603
G1 X172.402 Y90.768 E20.03668
G1 X172.142 Y91.466 E20.06145
G1 X171.959 Y91.909 E20.0774
G1 X171.779 Y92.321 E20.09235
G1 X171.409 Y93.119 E20.12161
G1 X170.375 Y95.433 E20.2059
G1 X169.407 Y97.772 E20.2901
G1 X168.506 Y100.143 E20.37446
G1 X167.678 Y102.515 E20.45802
G1 X166.915 Y104.922 E20.542
G1 X166.215 Y107.368 E20.62663
G1 X165.595 Y109.789 E20.70975
G1 X165.023 Y112.312 E20.79579
G1 X164.548 Y114.74 E20.87808
G1 X164.125 Y117.268 E20.96333
G1 X163.784 Y119.735 E21.04616
G1 X163.504 Y122.284 E21.13145
G1 X163.301 Y124.782 E21.21481
G1 X163.17 Y127.279 E21.29797
G1 X163.101 Y130.851 E21.4168
G1 X163.1 Y195.794 E23.57681
G1 X163.099 Y195.944 E23.5818
G1 X163.089 Y196.65 E23.60529
G1 X163.057 Y197.337 E23.62816
G1 X163.02 Y197.804 E23.64374
G1 X162.907 Y198.718 E23.67437
G1 X162.763 Y199.43 E23.69853
G1 X162.655 Y199.882 E23.71399
G1 X162.402 Y200.768 E23.74464
G1 X162.143 Y201.464 E23.76934
G1 X161.963 Y201.9 E23.78503
G1 X161.575 Y202.735 E23.81565
G1 X161.214 Y203.376 E23.84012
G1 X160.973 Y203.771 E23.85551
G1 X160.46 Y204.535 E23.88612
G1 X159.999 Y205.116 E23.91078
G1 X159.698 Y205.47 E23.92624
G1 X159.072 Y206.145 E23.95686
G1 X158.561 Y206.618 E23.98002
G1 X158.226 Y206.908 E23.99476
G1 X157.504 Y207.48 E24.02539
G1 X156.92 Y207.874 E24.04882
G1 X156.507 Y208.133 E24.06504
G1 X155.706 Y208.588 E24.09568
G1 X155.032 Y208.904 E24.12044
G1 X154.598 Y209.089 E24.13613
G1 X153.736 Y209.413 E24.16676
G1 X152.961 Y209.634 E24.19356
G1 X152.487 Y209.75 E24.20979
G1 X151.584 Y209.93 E24.24042
G1 X150.777 Y210.023 E24.26743
G1 X150.307 Y210.059 E24.28311
G1 X149.671 Y210.089 E24.30429
G1 X148.949 Y210.099 E24.32831
G1 X114.059 Y210.099 E25.48875
G1 X113.354 Y210.089 E25.5122
G1 X112.677 Y210.058 E25.53474
G1 X112.204 Y210.021 E25.55052
G1 X111.29 Y209.909 E25.58115
G1 X110.551 Y209.759 E25.60623
G1 X110.098 Y209.65 E25.62173
G1 X109.213 Y209.396 E25.65235
G1 X108.528 Y209.14 E25.67667
G1 X108.095 Y208.961 E25.69226
G1 X107.261 Y208.573 E25.72285
G1 X106.615 Y208.208 E25.74753
G1 X106.216 Y207.964 E25.76308
G1 X105.452 Y207.45 E25.79371
G1 X104.882 Y206.998 E25.81791
G1 X104.529 Y206.698 E25.83331
G1 X103.854 Y206.072 E25.86393
G1 X103.355 Y205.531 E25.88841
G1 X103.067 Y205.196 E25.90311
G1 X102.498 Y204.473 E25.93371
G1 X102.127 Y203.922 E25.9558
G1 X101.869 Y203.511 E25.97194
G1 X101.414 Y202.71 E26.00258
G1 X101.096 Y202.032 E26.02749
G1 X100.911 Y201.598 E26.04318
G1 X100.587 Y200.736 E26.07381
G1 X100.365 Y199.956 E26.10078
G1 X100.249 Y199.481 E26.11704
G1 X100.069 Y198.578 E26.14767
G1 X100.008 Y198.11 E26.16337
G1 X99.856 Y196.71 E26.2102
G1 X99.584 Y194.467 E26.28535
G1 X99.212 Y191.954 E26.36985
G1 X98.771 Y189.473 E26.45366
G1 X98.267 Y187.038 E26.53636
G1 X97.672 Y184.522 E26.62235
G1 X97.019 Y182.073 E26.70665
G1 X96.305 Y179.67 E26.79003
G1 X95.518 Y177.274 E26.87391
G1 X94.658 Y174.885 E26.95836
G1 X93.732 Y172.523 E27.04274
G1 X92.752 Y170.219 E27.12602
G1 X91.685 Y167.893 E27.21113
G1 X90.566 Y165.627 E27.29519
G1 X89.394 Y163.414 E27.37848
G1 X88.141 Y161.201 E27.46306
G1 X86.834 Y159.038 E27.54712
G1 X85.464 Y156.907 E27.63138
G1 X84.038 Y154.823 E27.71537
G1 X82.572 Y152.806 E27.7983
G1 X81.002 Y150.768 E27.88387
G1 X79.394 Y148.799 E27.96842
G1 X77.712 Y146.856 E28.0539
G1 X76.779 Y145.788 E28.10106
G1 X76.501 Y145.454 E28.11552
G1 X76.1 Y144.941 E28.13717
G1 X75.657 Y144.33 E28.16227
G1 X75.394 Y143.95 E28.17764
G1 X75.113 Y143.522 E28.19467
G1 X74.928 Y143.225 E28.20631
G1 X74.739 Y142.91 E28.21853
G1 X74.53 Y142.547 E28.23246
G1 X74.28 Y142.087 E28.24987
G1 X74.127 Y141.788 E28.26105
G1 X73.973 Y141.475 E28.27265
G1 X73.771 Y141.046 E28.28842
G1 X73.596 Y140.654 E28.3027
G1 X73.49 Y140.403 E28.31176
G1 X73.342 Y140.032 E28.32505
G1 X73.144 Y139.509 E28.34364
G1 X72.954 Y138.963 E28.36287
G1 X72.77 Y138.371 E28.38349
G1 X72.642 Y137.926 E28.39889
G1 X72.502 Y137.388 E28.41738
G1 X72.36 Y136.755 E28.43896
G1 X72.264 Y136.283 E28.45498
G1 X72.154 Y135.641 E28.47664
G1 X72.067 Y134.996 E28.49829
G1 X72.014 Y134.527 E28.51399
G1 X71.965 Y133.948 E28.53332
G1 X71.933 Y133.342 E28.5535
G1 X71.908 Y132.55 E28.57985
G1 X71.903 Y132.216 E28.59097
G1 X71.903 Y130.838 E28.6368
G1 X71.866 Y128.213 E28.72411
G1 X71.759 Y125.704 E28.80764
G1 X71.581 Y123.184 E28.89166
G1 X71.332 Y120.67 E28.97569
G1 X71.013 Y118.181 E29.05915
G1 X70.612 Y115.629 E29.14507
G1 X70.161 Y113.206 E29.22705
G1 X69.622 Y110.698 E29.31237
G1 X69.028 Y108.274 E29.39537
G1 X68.342 Y105.78 E29.48141
G1 X67.614 Y103.404 E29.56406
G1 X66.8 Y100.99 E29.64879
G1 X65.933 Y98.64 E29.7321
G1 X64.975 Y96.254 E29.81762
G1 X63.97 Y93.945 E29.90137
G1 X63.466 Y92.866 E29.94098
G1 X63.107 Y92.07 E29.97003
G1 X62.911 Y91.605 E29.98681
G1 X62.804 Y91.334 E29.9965
G1 X62.503 Y90.464 E30.02712
G1 X62.371 Y89.976 E30.04394
G1 X62.254 Y89.501 E30.06021
G1 X62.072 Y88.599 E30.09081
G1 X61.977 Y87.777 E30.11833
G1 X61.941 Y87.308 E30.13398
G1 X61.911 Y86.671 E30.15519
G1 X61.901 Y85.95 E30.17917
G1 X61.901 Y39.06 E31.73874
G1 X61.911 Y38.345 E31.76252
G1 X61.944 Y37.645 E31.78583
G1 X61.981 Y37.184 E31.80121
G1 X62.094 Y36.27 E31.83184
G1 X62.238 Y35.563 E31.85584
G1 X62.346 Y35.112 E31.87127
G1 X62.6 Y34.227 E31.90189
G1 X62.857 Y33.536 E31.92641
G1 X63.037 Y33.1 E31.9421
G1 X63.425 Y32.265 E31.97272
G1 X63.786 Y31.624 E31.99719
G1 X64.027 Y31.229 E32.01258
G1 X64.54 Y30.465 E32.04319
G1 X65.004 Y29.88 E32.06802
G1 X65.307 Y29.524 E32.08357
G1 X65.934 Y28.849 E32.11421
G1 X66.455 Y28.368 E32.1378
G1 X66.79 Y28.079 E32.15251
G1 X67.513 Y27.508 E32.18316
G1 X68.073 Y27.131 E32.20561
G1 X68.485 Y26.872 E32.22179
G1 X69.285 Y26.416 E32.25242
G1 X69.98 Y26.09 E32.27795
G1 X70.413 Y25.906 E32.2936
G1 X71.276 Y25.583 E32.32425
G1 X72.044 Y25.365 E32.3508
G1 X72.519 Y25.249 E32.36707
G1 X73.422 Y25.069 E32.39769
G1 X74.223 Y24.977 E32.42451
G1 X74.692 Y24.941 E32.44015
G1 X75.329 Y24.911 E32.46136
G1 X76.05 Y24.901 E32.48534
G1 X158.793 Y24.9 E35.23739
G1 X158.943 Y24.901 E35.24238
G1 X159.649 Y24.911 E35.26586
G0 F6000 X159.655 Y24.511
G1 F1200 X160.362 Y24.544 E35.2894
G1 X160.832 Y24.581 E35.30508
G1 X161.763 Y24.694 E35.33628
G1 X162.542 Y24.852 E35.36271
G1 X162.995 Y24.961 E35.37821
G1 X163.897 Y25.219 E35.40941
G1 X164.621 Y25.489 E35.43511
G1 X165.052 Y25.667 E35.45062
G1 X165.903 Y26.062 E35.48183
G1 X166.578 Y26.441 E35.50757
G1 X166.975 Y26.683 E35.52304
G1 X167.755 Y27.205 E35.55426
G1 X168.381 Y27.701 E35.58082
G1 X168.731 Y27.999 E35.59611
G1 X169.419 Y28.636 E35.62729
G1 X169.909 Y29.165 E35.65128
G1 X170.204 Y29.505 E35.66625
G1 X170.787 Y30.239 E35.69743
G1 X171.212 Y30.866 E35.72262
G1 X171.47 Y31.277 E35.73876
G1 X171.934 Y32.092 E35.76995
G1 X172.272 Y32.812 E35.79641
G1 X172.457 Y33.246 E35.8121
G1 X172.788 Y34.123 E35.84327
G1 X173.023 Y34.945 E35.87171
G1 X173.138 Y35.415 E35.8878
G1 X173.322 Y36.334 E35.91898
G1 X173.418 Y37.155 E35.94647
G1 X173.455 Y37.619 E35.96195
G1 X173.491 Y38.308 E35.9849
G1 X173.498 Y38.711 E35.9983
G1 X173.499 Y85.949 E37.56945
G1 X173.489 Y86.655 E37.59293
