;FLAVOR:Marlin
;TIME:14425
;Filament used: 11.1434m
;Layer height: 0.2
;MINX:62.949
;MINY:78.5
;MINZ:0.2
;MAXX:112.078
;MAXY:180.499
;MAXZ:30
;Generated with Cura_SteamEngine 4.6.2
M140 S60
M105
M190 S60
M104 S200
M105
M109 S200
M82 ;absolute extrusion mode
; Ender 3 Custom Start G-code
G92 E0 ; Reset Extruder
G28 ; Home all axes
G1 Z2.0 F3000 ; Move Z Axis up little to prevent scratching of Heat Bed
G1 X0.1 Y20 Z0.3 F5000.0 ; Move to start position
G1 X0.1 Y200.0 Z0.3 F1500.0 E15 ; Draw the first line
G1 X0.4 Y200.0 Z0.3 F5000.0 ; Move to side a little
G1 X0.4 Y20 Z0.3 F1500.0 E30 ; Draw the second line
G92 E0 ; Reset Extruder
G1 Z2.0 F3000 ; Move Z Axis up little to prevent scratching of Heat Bed
G1 X5 Y20 Z0.3 F5000.0 ; Move over to prevent blob squish
G92 E0
G92 E0
G1 F1500 E-6.5
;LAYER_COUNT:150
;LAYER:0
M107
G0 F6000 X85.191 Y79.311 Z0.2
;TYPE:SKIRT
G1 F1500 E0
G1 F1200 X86.093 Y79.364 E0.03005
G1 X86.986 Y79.496 E0.06008
G1 X87.864 Y79.707 E0.09011
G1 X88.72 Y79.995 E0.12015
G1 X89.547 Y80.357 E0.15018
G1 X90.339 Y80.792 E0.18023
G1 X91.09 Y81.294 E0.21027
G1 X91.793 Y81.861 E0.24031
G1 X92.443 Y82.488 E0.27035
G1 X93.035 Y83.17 E0.30039
G1 X93.565 Y83.901 E0.33042
G1 X94.027 Y84.677 E0.36046
G1 X94.42 Y85.49 E0.39049
G1 X94.738 Y86.335 E0.42052
G1 X94.981 Y87.205 E0.45056
G1 X95.146 Y88.093 E0.4806
G1 X95.217 Y88.756 E0.50278
G1 X95.393 Y91.13 E0.58196
G1 X95.641 Y93.591 E0.66423
G1 X95.975 Y96.176 E0.75092
G1 X96.376 Y98.706 E0.83612
G1 X96.834 Y101.154 E0.91895
G1 X97.373 Y103.636 E1.00343
G1 X97.981 Y106.104 E1.08797
G1 X98.644 Y108.506 E1.17084
G1 X110.686 Y150.012 E2.60827
G1 X110.895 Y150.763 E2.63419
G1 X111.098 Y151.643 E2.66423
G1 X111.223 Y152.538 E2.69429
G1 X111.267 Y153.354 E2.72147
G1 X111.278 Y154.207 E2.74984
G1 X111.277 Y167.904 E3.20541
G1 X111.267 Y168.631 E3.22959
G1 X111.215 Y169.533 E3.25964
G1 X111.083 Y170.426 E3.28966
G1 X110.872 Y171.305 E3.31973
G1 X110.585 Y172.161 E3.34976
G1 X110.223 Y172.988 E3.37978
G1 X109.789 Y173.78 E3.40982
G1 X109.287 Y174.531 E3.43987
G1 X108.721 Y175.234 E3.46988
G1 X108.094 Y175.885 E3.49995
G1 X107.413 Y176.477 E3.52996
G1 X106.682 Y177.007 E3.55999
G1 X105.906 Y177.47 E3.59004
G1 X105.093 Y177.863 E3.62008
G1 X104.248 Y178.183 E3.65013
G1 X103.379 Y178.426 E3.68014
G1 X102.491 Y178.591 E3.71018
G1 X101.355 Y178.687 E3.7481
G1 X100.748 Y178.7 E3.76829
G1 X99.159 Y178.7 E3.82114
G1 X96.553 Y178.737 E3.90783
G1 X93.988 Y178.846 E3.99322
G1 X91.481 Y179.024 E4.07681
G1 X88.974 Y179.272 E4.1606
G1 X86.557 Y179.583 E4.24165
G1 X85.849 Y179.649 E4.2653
G1 X85.335 Y179.679 E4.28243
G1 X84.748 Y179.696 E4.30196
G1 X78.655 Y179.699 E4.50462
G1 X77.968 Y179.689 E4.52747
G1 X77.066 Y179.636 E4.55752
G1 X76.173 Y179.503 E4.58755
G1 X75.295 Y179.292 E4.61758
G1 X74.439 Y179.004 E4.64762
G1 X73.612 Y178.641 E4.67766
G1 X72.82 Y178.207 E4.7077
G1 X72.069 Y177.705 E4.73774
G1 X71.366 Y177.137 E4.7678
G1 X70.717 Y176.511 E4.79779
G1 X70.125 Y175.828 E4.82786
G1 X69.595 Y175.097 E4.85789
G1 X69.133 Y174.321 E4.88793
G1 X68.741 Y173.508 E4.91795
G1 X68.381 Y172.536 E4.95242
G1 X68.264 Y172.16 E4.96552
G1 X67.478 Y169.601 E5.05455
G1 X66.659 Y167.186 E5.13937
G1 X65.776 Y164.804 E5.22387
G1 X64.816 Y162.422 E5.30928
G1 X64.501 Y161.669 E5.33643
G1 X64.198 Y160.818 E5.36648
G1 X63.972 Y159.944 E5.3965
G1 X63.824 Y159.053 E5.42654
G1 X63.755 Y158.152 E5.4566
G1 X63.757 Y157.453 E5.47985
G1 X63.798 Y156.336 E5.51702
G1 X63.864 Y153.688 E5.60512
G1 X63.855 Y151.149 E5.68957
G1 X63.757 Y148.184 E5.78824
G1 X63.754 Y147.35 E5.81598
G1 X63.773 Y146.831 E5.83325
G1 X63.84 Y144.197 E5.92089
G1 X63.831 Y141.66 E6.00527
G1 X63.749 Y139.028 E6.09285
G1 X63.751 Y138.32 E6.1164
G1 X63.788 Y137.391 E6.14733
G1 X63.847 Y136.32 E6.183
G1 X63.913 Y133.77 E6.26784
G1 X63.906 Y131.228 E6.35239
G1 X63.828 Y128.67 E6.43751
G1 X63.758 Y127.168 E6.48752
G1 X63.755 Y126.287 E6.51682
G1 X63.793 Y125.326 E6.54881
G1 X63.862 Y122.671 E6.63715
G1 X63.854 Y120.145 E6.72116
G1 X63.757 Y117.188 E6.81957
G1 X63.754 Y116.338 E6.84784
G1 X63.795 Y115.267 E6.88348
G1 X63.862 Y112.648 E6.97062
G1 X63.854 Y110.141 E7.054
G1 X63.752 Y107.047 E7.15697
G1 X63.763 Y106.144 E7.187
G1 X63.853 Y105.245 E7.21705
G1 X64.022 Y104.358 E7.24709
G1 X64.222 Y103.636 E7.272
G1 X64.29 Y103.421 E7.2795
G1 X65.115 Y100.833 E7.36985
G1 X65.809 Y98.42 E7.45336
G1 X66.448 Y95.936 E7.53867
G1 X67.012 Y93.461 E7.6231
G1 X67.503 Y90.968 E7.70761
G1 X67.894 Y88.666 E7.78527
G1 X68.01 Y87.929 E7.81008
G1 X68.19 Y87.044 E7.84012
G1 X68.447 Y86.178 E7.87017
G1 X68.78 Y85.338 E7.90022
G1 X69.185 Y84.531 E7.93025
G1 X69.661 Y83.763 E7.9603
G1 X70.202 Y83.041 E7.99031
G1 X70.805 Y82.368 E8.02036
G1 X71.466 Y81.752 E8.05042
G1 X72.178 Y81.197 E8.08044
G1 X72.936 Y80.707 E8.11046
G1 X73.735 Y80.286 E8.1405
G1 X74.568 Y79.937 E8.17054
G1 X75.429 Y79.663 E8.20059
G1 X76.31 Y79.467 E8.23061
G1 X77.206 Y79.349 E8.26067
G1 X77.738 Y79.317 E8.2784
G1 X78.059 Y79.306 E8.28908
G1 X78.408 Y79.3 E8.30069
G1 X84.493 Y79.301 E8.50308
G1 X85.191 Y79.311 E8.52629
G0 F6000 X85.197 Y78.911
G1 F1200 X86.116 Y78.964 E8.55691
G1 X87.027 Y79.097 E8.58753
G1 X87.923 Y79.308 E8.61815
G1 X88.797 Y79.596 E8.64875
G1 X89.644 Y79.959 E8.6794
G1 X90.455 Y80.394 E8.71001
G1 X91.225 Y80.898 E8.74062
G1 X91.949 Y81.467 E8.77125
G1 X92.621 Y82.097 E8.80189
G1 X93.236 Y82.782 E8.8325
G1 X93.789 Y83.518 E8.86312
G1 X94.276 Y84.299 E8.89374
G1 X94.693 Y85.12 E8.92436
G1 X95.038 Y85.974 E8.955
G1 X95.307 Y86.854 E8.9856
G1 X95.499 Y87.755 E9.01624
G1 X95.616 Y88.726 E9.04877
G1 X95.792 Y91.099 E9.12792
G1 X96.044 Y93.599 E9.21149
G1 X96.368 Y96.1 E9.29537
G1 X96.764 Y98.601 E9.37959
G1 X97.229 Y101.084 E9.46361
G1 X97.77 Y103.576 E9.54842
G1 X98.371 Y106.016 E9.632
G1 X99.014 Y108.348 E9.71246
G1 X111.071 Y149.905 E11.15165
G1 X111.28 Y150.656 E11.17758
G1 X111.488 Y151.553 E11.2082
G1 X111.617 Y152.464 E11.23881
G1 X111.667 Y153.349 E11.26829
G1 X111.678 Y154.207 E11.29683
G1 X111.677 Y167.91 E11.75259
G1 X111.667 Y168.637 E11.77677
G1 X111.614 Y169.556 E11.80739
G1 X111.482 Y170.467 E11.83801
G1 X111.271 Y171.363 E11.86862
G1 X110.984 Y172.238 E11.89925
G1 X110.621 Y173.084 E11.92987
G1 X110.187 Y173.896 E11.96049
G1 X109.683 Y174.667 E11.99113
G1 X109.115 Y175.391 E12.02174
G1 X108.486 Y176.063 E12.05235
G1 X107.801 Y176.678 E12.08297
G1 X107.065 Y177.231 E12.11359
G1 X106.284 Y177.719 E12.14422
G1 X105.464 Y178.137 E12.17483
G1 X104.61 Y178.482 E12.20546
G1 X103.73 Y178.751 E12.23607
G1 X102.829 Y178.944 E12.26672
G1 X101.916 Y179.057 E12.29732
G1 X101.366 Y179.087 E12.31564
G1 X100.748 Y179.1 E12.33619
G1 X99.165 Y179.1 E12.38885
G1 X96.54 Y179.137 E12.47616
G1 X94.032 Y179.244 E12.55965
G1 X91.512 Y179.422 E12.64368
G1 X88.998 Y179.671 E12.7277
G1 X86.608 Y179.979 E12.80785
G1 X85.873 Y180.048 E12.83241
G1 X85.359 Y180.078 E12.84953
G1 X84.748 Y180.096 E12.86986
G1 X78.649 Y180.099 E13.07272
G1 X77.962 Y180.089 E13.09557
G1 X77.043 Y180.036 E13.12618
G1 X76.132 Y179.903 E13.15681
G1 X75.236 Y179.691 E13.18743
G1 X74.361 Y179.403 E13.21807
G1 X73.515 Y179.04 E13.24869
G1 X72.704 Y178.604 E13.27931
G1 X71.934 Y178.1 E13.30992
G1 X71.21 Y177.531 E13.34055
G1 X70.538 Y176.902 E13.37116
G1 X69.923 Y176.216 E13.40181
G1 X69.371 Y175.48 E13.4324
G1 X68.884 Y174.699 E13.46302
G1 X68.467 Y173.878 E13.49364
G1 X68 Y172.655 E13.53719
G1 X67.882 Y172.278 E13.55032
G1 X67.103 Y169.742 E13.63856
G1 X66.277 Y167.306 E13.72411
G1 X65.406 Y164.956 E13.80747
G1 X64.452 Y162.589 E13.89235
G1 X64.131 Y161.819 E13.9201
G1 X63.821 Y160.952 E13.95072
G1 X63.588 Y160.062 E13.98132
G1 X63.433 Y159.154 E14.01196
G1 X63.358 Y158.237 E14.04256
G1 X63.357 Y157.438 E14.06914
G1 X63.398 Y156.311 E14.10665
G1 X63.464 Y153.679 E14.19421
G1 X63.456 Y151.162 E14.27793
G1 X63.375 Y148.599 E14.36322
G1 X63.357 Y148.202 E14.37644
G1 X63.354 Y147.335 E14.40527
G1 X63.374 Y146.806 E14.42288
G1 X63.439 Y144.189 E14.50995
G1 X63.431 Y141.674 E14.5936
G1 X63.349 Y139.041 E14.68121
G1 X63.352 Y138.304 E14.70573
G1 X63.389 Y137.369 E14.73685
G1 X63.448 Y136.288 E14.77286
G1 X63.513 Y133.796 E14.85577
G1 X63.506 Y131.241 E14.94075
G1 X63.427 Y128.641 E15.02727
G1 X63.359 Y127.187 E15.07568
G1 X63.355 Y126.271 E15.10615
G1 X63.397 Y125.209 E15.1415
G1 X63.462 Y122.696 E15.22511
G1 X63.454 Y120.158 E15.30952
G1 X63.358 Y117.206 E15.40776
G1 X63.355 Y116.323 E15.43713
G1 X63.393 Y115.32 E15.47051
G1 X63.461 Y112.64 E15.55968
G1 X63.453 Y110.121 E15.64346
G1 X63.353 Y107.06 E15.74532
G1 X63.362 Y106.139 E15.77596
G1 X63.452 Y105.223 E15.80657
G1 X63.621 Y104.318 E15.83719
G1 X63.84 Y103.516 E15.86484
G1 X63.908 Y103.301 E15.87234
G1 X64.722 Y100.749 E15.96143
G1 X65.432 Y98.282 E16.04682
G1 X66.056 Y95.853 E16.13023
G1 X66.624 Y93.361 E16.21524
G1 X67.109 Y90.902 E16.2986
G1 X67.497 Y88.616 E16.37572
G1 X67.615 Y87.867 E16.40094
G1 X67.798 Y86.964 E16.43159
G1 X68.057 Y86.081 E16.46219
G1 X68.393 Y85.224 E16.49281
G1 X68.801 Y84.399 E16.52342
G1 X69.28 Y83.612 E16.55406
G1 X69.825 Y82.87 E16.58468
G1 X70.433 Y82.178 E16.61532
G1 X71.098 Y81.542 E16.64593
G1 X71.816 Y80.965 E16.67656
G1 X72.581 Y80.453 E16.70718
G1 X73.387 Y80.01 E16.73777
G1 X74.23 Y79.638 E16.76842
G1 X75.101 Y79.34 E16.79903
G1 X75.995 Y79.12 E16.82966
G1 X76.904 Y78.977 E16.86026
G1 X77.724 Y78.917 E16.88761
G1 X78.045 Y78.906 E16.89829
G1 X78.408 Y78.9 E16.91037
G1 X84.499 Y78.901 E17.11295
G1 X85.197 Y78.911 E17.13617
G0 F6000 X85.203 Y78.511
G1 F1200 X86.139 Y78.565 E17.16735
G1 X87.067 Y78.697 E17.19853
G1 X87.981 Y78.909 E17.22974
G1 X88.873 Y79.198 E17.26092
G1 X89.738 Y79.561 E17.29212
G1 X90.568 Y79.997 E17.32331
G1 X91.359 Y80.502 E17.35452
G1 X92.103 Y81.073 E17.38571
G1 X92.796 Y81.705 E17.41691
G1 X93.433 Y82.393 E17.44809
G1 X94.008 Y83.134 E17.47929
G1 X94.519 Y83.92 E17.51047
G1 X94.961 Y84.748 E17.54169
G1 X95.33 Y85.61 E17.57287
G1 X95.625 Y86.5 E17.60406
G1 X95.843 Y87.412 E17.63525
G1 X96.015 Y88.697 E17.67837
G1 X96.19 Y91.062 E17.75724
G1 X96.441 Y93.548 E17.84035
G1 X96.765 Y96.052 E17.92433
G1 X97.159 Y98.543 E18.00821
G1 X97.623 Y101.015 E18.09186
G1 X98.161 Y103.494 E18.17623
G1 X98.75 Y105.885 E18.25814
G1 X99.417 Y108.3 E18.34147
G1 X111.456 Y149.798 E19.7786
G1 X111.665 Y150.549 E19.80453
G1 X111.878 Y151.462 E19.83571
G1 X112.012 Y152.39 E19.8669
G1 X112.067 Y153.343 E19.89865
G1 X112.078 Y154.207 E19.92739
G1 X112.077 Y167.915 E20.38332
G1 X112.067 Y168.642 E20.4075
G1 X112.014 Y169.579 E20.43872
G1 X111.882 Y170.507 E20.46989
G1 X111.671 Y171.421 E20.50109
G1 X111.382 Y172.313 E20.53228
G1 X111.019 Y173.178 E20.56348
G1 X110.584 Y174.009 E20.59467
G1 X110.079 Y174.799 E20.62586
G1 X109.509 Y175.544 E20.65706
G1 X108.878 Y176.238 E20.68826
G1 X108.189 Y176.875 E20.71947
G1 X107.449 Y177.451 E20.75066
G1 X106.663 Y177.962 E20.78184
G1 X105.836 Y178.404 E20.81303
G1 X104.974 Y178.774 E20.84423
G1 X104.084 Y179.069 E20.87541
G1 X103.172 Y179.288 E20.90661
G1 X102.245 Y179.428 E20.93779
G1 X101.377 Y179.487 E20.96672
G1 X100.748 Y179.5 E20.98765
G1 X99.171 Y179.5 E21.0401
G1 X96.563 Y179.537 E21.12685
G1 X94.042 Y179.644 E21.21078
G1 X91.547 Y179.821 E21.29397
G1 X89.052 Y180.068 E21.37736
G1 X86.659 Y180.376 E21.45761
G1 X85.896 Y180.447 E21.48309
G1 X85.382 Y180.477 E21.50022
G1 X84.748 Y180.496 E21.52132
G1 X78.643 Y180.499 E21.72437
G1 X77.956 Y180.489 E21.74722
G1 X77.02 Y180.435 E21.7784
G1 X76.091 Y180.302 E21.80962
G1 X75.178 Y180.09 E21.84079
G1 X74.285 Y179.801 E21.87201
G1 X73.421 Y179.438 E21.90318
G1 X72.591 Y179.002 E21.93436
G1 X71.8 Y178.496 E21.96559
G1 X71.056 Y177.926 E21.99677
G1 X70.363 Y177.294 E22.02796
G1 X69.727 Y176.605 E22.05915
G1 X69.151 Y175.864 E22.09036
G1 X68.641 Y175.077 E22.12156
G1 X68.199 Y174.25 E22.15274
G1 X67.83 Y173.388 E22.18393
G1 X67.618 Y172.775 E22.2055
G1 X67.499 Y172.395 E22.21875
G1 X66.707 Y169.819 E22.30838
G1 X65.91 Y167.468 E22.39095
G1 X65.031 Y165.096 E22.47509
G1 X64.088 Y162.755 E22.55903
G1 X63.76 Y161.97 E22.58732
G1 X63.444 Y161.087 E22.61852
G1 X63.205 Y160.18 E22.64971
G1 X63.043 Y159.256 E22.68091
G1 X62.961 Y158.322 E22.7121
G1 X62.957 Y157.424 E22.74197
G1 X62.999 Y156.288 E22.77978
G1 X63.063 Y153.67 E22.86688
G1 X63.056 Y151.177 E22.9498
G1 X62.958 Y148.219 E23.04823
G1 X62.955 Y147.32 E23.07813
G1 X62.972 Y146.863 E23.09334
G1 X63.039 Y144.18 E23.18261
G1 X63.032 Y141.687 E23.26553
G1 X62.949 Y139.053 E23.35318
G1 X62.952 Y138.289 E23.37859
G1 X62.99 Y137.347 E23.40995
G1 X63.048 Y136.29 E23.44515
G1 X63.113 Y133.787 E23.52843
G1 X63.106 Y131.255 E23.61265
G1 X63.028 Y128.669 E23.6987
G1 X62.959 Y127.205 E23.74744
G1 X62.956 Y126.255 E23.77904
G1 X62.995 Y125.273 E23.81173
G1 X63.062 Y122.687 E23.89777
G1 X63.054 Y120.172 E23.98142
G1 X62.958 Y117.224 E24.07952
G1 X62.955 Y116.308 E24.10999
G1 X62.998 Y115.18 E24.14753
G1 X63.062 Y112.666 E24.23117
G1 X63.054 Y110.136 E24.31532
G1 X62.953 Y107.073 E24.41725
G1 X62.962 Y106.135 E24.44845
G1 X63.051 Y105.201 E24.47966
G1 X63.22 Y104.279 E24.51084
G1 X63.459 Y103.395 E24.54129
G1 X63.527 Y103.18 E24.54879
G1 X64.346 Y100.612 E24.63844
G1 X65.037 Y98.21 E24.72158
G1 X65.671 Y95.744 E24.80626
G1 X66.23 Y93.292 E24.88991
G1 X66.721 Y90.799 E24.97442
G1 X67.101 Y88.565 E25.04979
G1 X67.22 Y87.805 E25.07538
G1 X67.405 Y86.885 E25.10659
G1 X67.668 Y85.985 E25.13777
G1 X68.006 Y85.11 E25.16897
G1 X68.417 Y84.267 E25.20016
G1 X68.899 Y83.463 E25.23134
G1 X69.448 Y82.702 E25.26255
G1 X70.059 Y81.991 E25.29373
G1 X70.729 Y81.334 E25.32494
G1 X71.452 Y80.737 E25.35613
G1 X72.224 Y80.204 E25.38733
G1 X73.038 Y79.738 E25.41853
G1 X73.889 Y79.344 E25.44972
G1 X74.77 Y79.023 E25.48091
G1 X75.676 Y78.779 E25.51211
G1 X76.599 Y78.612 E25.54331
G1 X77.71 Y78.517 E25.5804
G1 X78.031 Y78.506 E25.59108
G1 X78.408 Y78.5 E25.60362
G1 X84.505 Y78.501 E25.80641
G1 X85.203 Y78.511 E25.82963
G1 F1500 E19.32963
;MESH:DoorBlocker.stl(1)
G0 F6000 X85.705 Y88.847
G0 X85.742 Y98.264
G0 X84.659 Y98.418
G0 X98.307 Y153.891
G0 X98.478 Y165.9
;TYPE:WALL-INNER
G1 F1500 E25.82963
G1 F1200 X82.478 Y165.9 E26.36179
G1 X82.478 Y166.897 E26.39495
G1 X80.696 Y166.899 E26.45422
G1 X80.672 Y158.094 E26.74707
G1 X77.388 Y156.562 E26.8676
G1 X81.248 Y148.242 E27.17266
G1 X77.387 Y146.442 E27.31434
G1 X80.82 Y139.043 E27.58563
G1 X77.386 Y137.442 E27.71165
G1 X80.678 Y130.353 E27.97162
G1 X80.678 Y126.978 E28.08387
G1 X77.388 Y125.444 E28.20461
G1 X81.203 Y117.221 E28.5061
G1 X77.387 Y115.442 E28.64614
G1 X81.203 Y107.221 E28.94759
G1 X77.387 Y105.442 E29.08763
G1 X80.678 Y98.353 E29.34758
G1 X80.678 Y92.1 E29.55555
G1 X82.461 Y92.1 E29.61486
G1 X82.478 Y98.729 E29.83534
G1 X98.478 Y153.865 E31.74482
G1 X98.478 Y165.9 E32.14511
G0 F6000 X98.878 Y166.3
G1 F1200 X82.878 Y166.3 E32.67727
G1 X82.878 Y167.296 E32.7104
G1 X80.297 Y167.3 E32.79624
G1 X80.273 Y158.349 E33.09396
G1 X76.857 Y156.755 E33.21933
G1 X80.717 Y148.436 E33.52436
G1 X76.856 Y146.636 E33.66605
G1 X80.289 Y139.237 E33.93734
G1 X76.855 Y137.636 E34.06335
G1 X80.278 Y130.265 E34.33366
G1 X80.278 Y127.233 E34.43451
G1 X76.857 Y125.638 E34.56005
G1 X80.672 Y117.415 E34.86155
G1 X76.856 Y115.636 E35.00158
G1 X80.672 Y107.415 E35.30303
G1 X76.856 Y105.636 E35.44307
G1 X80.278 Y98.265 E35.71336
G1 X80.278 Y91.7 E35.93171
G1 X82.86 Y91.7 E36.01759
G1 X82.878 Y98.672 E36.24948
G1 X98.878 Y153.809 E38.159
G1 X98.878 Y166.3 E38.57445
G0 F6000 X99.278 Y166.7
G1 F1200 X83.278 Y166.7 E39.10661
G1 X83.278 Y167.696 E39.13974
G1 X79.898 Y167.7 E39.25216
G1 X79.874 Y158.604 E39.5547
G1 X76.326 Y156.949 E39.68491
G1 X80.186 Y148.63 E39.98993
G1 X76.325 Y146.83 E40.13162
G1 X79.758 Y139.431 E40.40291
G1 X76.324 Y137.83 E40.52893
G1 X79.878 Y130.177 E40.80958
G1 X79.878 Y127.488 E40.89902
G1 X76.326 Y125.831 E41.02938
G1 X80.141 Y117.609 E41.33085
G1 X76.325 Y115.83 E41.47088
G1 X80.141 Y107.609 E41.77233
G1 X76.325 Y105.83 E41.91237
G1 X79.878 Y98.177 E42.193
G1 X79.878 Y91.3 E42.42173
G1 X83.259 Y91.3 E42.53419
G1 X83.278 Y98.615 E42.77749
G1 X99.278 Y153.753 E44.68703
G1 X99.278 Y166.7 E45.11765
G0 F6000 X99.678 Y167.1
G1 F1200 X83.678 Y167.1 E45.64982
G1 X83.678 Y168.096 E45.68294
