;FLAVOR:Marlin
;TIME:3732
;Filament used: 1.96301m
;Layer height: 0.2
;MINX:90.2
;MINY:94.45
;MINZ:0.2
;MAXX:144.8
;MAXY:140.548
;MAXZ:15
;Generated with Cura_SteamEngine 4.6.2
M140 S60
M105
M190 S60
M104 S200
M105
M109 S200
M82 ;absolute extrusion mode
; Ender 3 Custom Start G-code
G92 E0 ; Reset Extruder
G28 ; Home all axes
G1 Z2.0 F3000 ; Move Z Axis up little to prevent scratching of Heat Bed
G1 X0.1 Y20 Z0.3 F5000.0 ; Move to start position
G1 X0.1 Y200.0 Z0.3 F1500.0 E15 ; Draw the first line
G1 X0.4 Y200.0 Z0.3 F5000.0 ; Move to side a little
G1 X0.4 Y20 Z0.3 F1500.0 E30 ; Draw the second line
G92 E0 ; Reset Extruder
G1 Z2.0 F3000 ; Move Z Axis up little to prevent scratching of Heat Bed
G1 X5 Y20 Z0.3 F5000.0 ; Move over to prevent blob squish
G92 E0
G92 E0
G1 F1500 E-6.5
;LAYER_COUNT:75
;LAYER:0
M107
G0 F6000 X92.602 Y96.735 Z0.2
;TYPE:SKIRT
G1 F1500 E0
G1 F1200 X93.188 Y96.205 E0.02628
G1 X93.824 Y95.738 E0.05252
G1 X94.504 Y95.337 E0.07878
G1 X95.222 Y95.007 E0.10506
G1 X95.969 Y94.752 E0.13132
G1 X96.738 Y94.573 E0.15758
G1 X97.522 Y94.473 E0.18386
G1 X98.117 Y94.45 E0.20367
G1 X109.886 Y94.45 E0.59511
G1 X110.675 Y94.49 E0.62138
G1 X111.455 Y94.609 E0.64763
G1 X112.22 Y94.807 E0.67391
G1 X112.96 Y95.081 E0.70015
G1 X113.669 Y95.429 E0.72642
G1 X114.34 Y95.847 E0.75272
G1 X114.964 Y96.33 E0.77896
G1 X115.353 Y96.687 E0.79652
G1 X115.469 Y96.801 E0.80193
G1 X116.004 Y97.382 E0.8282
G1 X116.477 Y98.015 E0.85448
G1 X116.883 Y98.691 E0.88071
G1 X117.219 Y99.406 E0.90699
G1 X117.481 Y100.151 E0.93325
G1 X117.502 Y100.238 E0.93623
G1 X117.612 Y99.851 E0.94961
G1 X117.904 Y99.118 E0.97585
G1 X118.269 Y98.417 E1.00214
G1 X118.702 Y97.757 E1.02839
G1 X119.2 Y97.144 E1.05466
G1 X119.578 Y96.752 E1.07278
G1 X119.695 Y96.639 E1.07819
G1 X120.29 Y96.12 E1.10445
G1 X120.935 Y95.664 E1.13072
G1 X121.622 Y95.275 E1.15698
G1 X122.345 Y94.958 E1.18323
G1 X123.097 Y94.715 E1.20952
G1 X123.869 Y94.55 E1.23578
G1 X124.654 Y94.464 E1.26204
G1 X125.114 Y94.45 E1.27735
G1 X136.883 Y94.45 E1.66879
G1 X137.672 Y94.49 E1.69506
G1 X138.452 Y94.609 E1.72131
G1 X139.217 Y94.807 E1.74759
G1 X139.957 Y95.081 E1.77383
G1 X140.666 Y95.429 E1.8001
G1 X141.337 Y95.847 E1.8264
G1 X141.961 Y96.33 E1.85264
G1 X142.398 Y96.735 E1.87246
G1 X142.515 Y96.852 E1.87796
G1 X143.045 Y97.438 E1.90424
G1 X143.512 Y98.074 E1.93048
G1 X143.913 Y98.754 E1.95674
G1 X144.243 Y99.472 E1.98302
G1 X144.498 Y100.219 E2.00928
G1 X144.677 Y100.988 E2.03554
G1 X144.777 Y101.772 E2.06182
G1 X144.8 Y102.367 E2.08163
G1 X144.8 Y105.133 E2.17363
G1 X144.76 Y105.922 E2.1999
G1 X144.641 Y106.702 E2.22615
G1 X144.443 Y107.467 E2.25243
G1 X144.169 Y108.207 E2.27867
G1 X143.906 Y108.742 E2.2985
G1 X144.243 Y109.472 E2.32524
G1 X144.498 Y110.219 E2.3515
G1 X144.677 Y110.988 E2.37776
G1 X144.777 Y111.772 E2.40404
G1 X144.8 Y112.367 E2.42385
G1 X144.8 Y115.133 E2.51585
G1 X144.76 Y115.922 E2.54212
G1 X144.641 Y116.702 E2.56837
G1 X144.443 Y117.467 E2.59465
G1 X144.169 Y118.207 E2.62089
G1 X143.906 Y118.742 E2.64072
G1 X144.243 Y119.472 E2.66746
G1 X144.498 Y120.219 E2.69372
G1 X144.677 Y120.988 E2.71998
G1 X144.777 Y121.772 E2.74627
G1 X144.8 Y122.367 E2.76607
G1 X144.8 Y125.133 E2.85807
G1 X144.76 Y125.922 E2.88434
G1 X144.641 Y126.702 E2.91059
G1 X144.443 Y127.467 E2.93687
G1 X144.169 Y128.207 E2.96311
G1 X143.821 Y128.916 E2.98938
G1 X143.403 Y129.587 E3.01568
G1 X142.92 Y130.211 E3.04192
G1 X142.515 Y130.648 E3.06174
G1 X142.398 Y130.765 E3.06724
G1 X141.812 Y131.295 E3.09352
G1 X141.176 Y131.762 E3.11977
G1 X140.496 Y132.163 E3.14602
G1 X139.778 Y132.493 E3.1723
G1 X139.031 Y132.748 E3.19856
G1 X138.262 Y132.927 E3.22482
G1 X137.478 Y133.027 E3.25111
G1 X136.883 Y133.05 E3.27091
G1 X132.27 Y133.05 E3.42434
G1 X132.152 Y133.212 E3.431
G1 X131.97 Y133.451 E3.441
G1 X131.711 Y133.778 E3.45487
G1 X131.496 Y134.039 E3.46612
G1 X131.052 Y134.545 E3.48851
G1 X130.763 Y134.858 E3.50268
G1 X130.51 Y135.12 E3.51479
G1 X130.216 Y135.41 E3.52853
G1 X129.997 Y135.618 E3.53857
G1 X129.687 Y135.901 E3.55253
G1 X129.448 Y136.11 E3.56309
G1 X129.121 Y136.385 E3.5773
G1 X128.881 Y136.579 E3.58757
G1 X128.556 Y136.831 E3.60125
G1 X128.323 Y137.004 E3.6109
G1 X127.976 Y137.253 E3.6251
G1 X127.703 Y137.441 E3.63613
G1 X127.358 Y137.667 E3.64985
G1 X127.089 Y137.835 E3.66039
G1 X126.728 Y138.051 E3.67439
G1 X126.484 Y138.191 E3.68374
G1 X126.117 Y138.393 E3.69768
G1 X125.814 Y138.551 E3.70904
G1 X125.438 Y138.737 E3.72299
G1 X125.144 Y138.875 E3.7338
G1 X124.761 Y139.045 E3.74773
G1 X124.503 Y139.154 E3.75705
G1 X124.112 Y139.311 E3.77106
G1 X123.814 Y139.424 E3.78166
G1 X123.411 Y139.567 E3.79589
G1 X123.124 Y139.663 E3.80595
G1 X122.723 Y139.788 E3.81992
G1 X122.374 Y139.888 E3.832
G1 X121.733 Y140.051 E3.85399
G1 X121.324 Y140.144 E3.86795
G1 X120.998 Y140.211 E3.87901
G1 X120.577 Y140.288 E3.89325
G1 X120.264 Y140.338 E3.90379
G1 X119.853 Y140.396 E3.9176
G1 X119.528 Y140.435 E3.92848
G1 X118.84 Y140.498 E3.95146
G1 X118.414 Y140.525 E3.96566
G1 X118.07 Y140.54 E3.97711
G1 X117.652 Y140.548 E3.99102
G1 X117.39 Y140.548 E3.99973
G1 X116.977 Y140.542 E4.01347
G1 X116.616 Y140.529 E4.02548
G1 X116.189 Y140.503 E4.03971
G1 X115.896 Y140.479 E4.04949
G1 X115.481 Y140.438 E4.06336
G1 X115.155 Y140.399 E4.07428
G1 X114.745 Y140.341 E4.08805
G1 X114.438 Y140.291 E4.0984
G1 X114.016 Y140.214 E4.11267
G1 X113.726 Y140.156 E4.1225
G1 X113.325 Y140.067 E4.13616
G1 X113.029 Y139.995 E4.1463
G1 X112.615 Y139.886 E4.16054
G1 X112.3 Y139.796 E4.17143
G1 X111.908 Y139.675 E4.18508
G1 X111.612 Y139.577 E4.19545
G1 X111.207 Y139.434 E4.20973
G1 X110.901 Y139.319 E4.22061
G1 X110.512 Y139.163 E4.23455
G1 X110.249 Y139.051 E4.24405
G1 X109.864 Y138.88 E4.25806
G1 X109.572 Y138.744 E4.26878
G1 X109.204 Y138.562 E4.28243
G1 X108.928 Y138.418 E4.29279
G1 X108.552 Y138.213 E4.30703
G1 X108.265 Y138.049 E4.31802
G1 X107.906 Y137.833 E4.33196
G1 X107.662 Y137.679 E4.34156
G1 X107.316 Y137.453 E4.3553
G1 X107.051 Y137.273 E4.36596
G1 X106.702 Y137.024 E4.38022
G1 X106.455 Y136.84 E4.39046
G1 X106.131 Y136.589 E4.40409
G1 X105.885 Y136.391 E4.4146
G1 X105.563 Y136.12 E4.42859
G1 X105.323 Y135.909 E4.43922
G1 X105.008 Y135.621 E4.45342
G1 X104.812 Y135.435 E4.4624
G1 X104.512 Y135.141 E4.47638
G1 X104.261 Y134.883 E4.48835
G1 X103.779 Y134.358 E4.51205
G1 X103.5 Y134.034 E4.52627
G1 X103.306 Y133.798 E4.53643
G1 X103.046 Y133.471 E4.55033
G1 X102.729 Y133.05 E4.56786
G1 X98.116 Y133.05 E4.72129
G1 X97.327 Y133.01 E4.74756
G1 X96.547 Y132.891 E4.77381
G1 X95.782 Y132.693 E4.80009
G1 X95.042 Y132.419 E4.82633
G1 X94.333 Y132.071 E4.8526
G1 X93.662 Y131.653 E4.8789
G1 X93.038 Y131.17 E4.90514
G1 X92.577 Y130.742 E4.92606
G1 X92.461 Y130.625 E4.93154
G1 X91.934 Y130.037 E4.95781
G1 X91.469 Y129.398 E4.98409
G1 X91.072 Y128.716 E5.01034
G1 X90.745 Y127.997 E5.03661
G1 X90.492 Y127.249 E5.06287
G1 X90.317 Y126.479 E5.08914
G1 X90.22 Y125.695 E5.11541
G1 X90.2 Y125.133 E5.13411
G1 X90.2 Y122.367 E5.22611
G1 X90.24 Y121.578 E5.25239
G1 X90.359 Y120.798 E5.27863
G1 X90.557 Y120.033 E5.30491
G1 X90.831 Y119.293 E5.33116
G1 X91.095 Y118.755 E5.35109
G1 X90.745 Y117.997 E5.37886
G1 X90.492 Y117.249 E5.40512
G1 X90.317 Y116.479 E5.43139
G1 X90.22 Y115.695 E5.45766
G1 X90.2 Y115.133 E5.47636
G1 X90.2 Y112.367 E5.56836
G1 X90.24 Y111.578 E5.59464
G1 X90.359 Y110.798 E5.62088
G1 X90.557 Y110.033 E5.64716
G1 X90.831 Y109.293 E5.67341
G1 X91.095 Y108.755 E5.69334
G1 X90.745 Y107.997 E5.72111
G1 X90.492 Y107.249 E5.74737
G1 X90.317 Y106.479 E5.77364
G1 X90.22 Y105.695 E5.79991
G1 X90.2 Y105.133 E5.81862
G1 X90.2 Y102.367 E5.91061
G1 X90.24 Y101.578 E5.93689
G1 X90.359 Y100.798 E5.96313
G1 X90.557 Y100.033 E5.98942
G1 X90.831 Y99.293 E6.01566
G1 X91.179 Y98.584 E6.04193
G1 X91.597 Y97.913 E6.06822
G1 X92.08 Y97.289 E6.09447
G1 X92.485 Y96.852 E6.11429
G1 X92.602 Y96.735 E6.11979
G0 F6000 X92.884 Y97.017
G1 F1200 X93.456 Y96.503 E6.14537
G1 X94.078 Y96.05 E6.17096
G1 X94.743 Y95.664 E6.19653
G1 X95.445 Y95.349 E6.22212
G1 X96.176 Y95.109 E6.24771
G1 X96.927 Y94.946 E6.27327
G1 X97.692 Y94.862 E6.29887
G1 X98.117 Y94.85 E6.31301
G1 X109.886 Y94.85 E6.70445
G1 X110.654 Y94.89 E6.73003
G1 X111.414 Y95.009 E6.75562
G1 X112.157 Y95.207 E6.78119
G1 X112.876 Y95.481 E6.80678
G1 X113.562 Y95.828 E6.83235
G1 X114.209 Y96.244 E6.85793
G1 X115.073 Y96.972 E6.89551
G1 X115.189 Y97.086 E6.90092
G1 X115.709 Y97.653 E6.92651
G1 X116.167 Y98.271 E6.95209
G1 X116.558 Y98.933 E6.97767
G1 X116.879 Y99.632 E7.00325
G1 X117.126 Y100.361 E7.02885
G1 X117.295 Y101.111 E7.05442
G1 X117.406 Y102.278 E7.09341
G1 X117.434 Y102.322 E7.09514
G1 X117.506 Y102.348 E7.09769
G1 X117.559 Y102.326 E7.0996
G1 X117.591 Y102.282 E7.10141
G1 X117.658 Y101.419 E7.1302
G1 X117.795 Y100.662 E7.15579
G1 X118.011 Y99.923 E7.18139
G1 X118.302 Y99.211 E7.20698
G1 X118.665 Y98.533 E7.23256
G1 X119.097 Y97.897 E7.25813
G1 X119.856 Y97.04 E7.2962
G1 X119.973 Y96.927 E7.30161
G1 X120.553 Y96.422 E7.32719
G1 X121.183 Y95.98 E7.35279
G1 X121.855 Y95.606 E7.37837
G1 X122.562 Y95.304 E7.40394
G1 X123.297 Y95.077 E7.42952
G1 X124.051 Y94.927 E7.45509
G1 X125.114 Y94.85 E7.49054
G1 X136.883 Y94.85 E7.88198
G1 X137.651 Y94.89 E7.90756
G1 X138.411 Y95.009 E7.93314
G1 X139.154 Y95.207 E7.95872
G1 X139.873 Y95.481 E7.98431
G1 X140.559 Y95.828 E8.00988
G1 X141.206 Y96.244 E8.03546
G1 X141.806 Y96.725 E8.06104
G1 X142.233 Y97.134 E8.08071
G1 X142.747 Y97.706 E8.10628
G1 X143.2 Y98.328 E8.13188
G1 X143.586 Y98.993 E8.15745
G1 X143.901 Y99.695 E8.18304
G1 X144.141 Y100.426 E8.20863
G1 X144.304 Y101.177 E8.23419
G1 X144.388 Y101.942 E8.25979
G1 X144.4 Y102.367 E8.27393
G1 X144.4 Y105.133 E8.36593
G1 X144.36 Y105.901 E8.39151
G1 X144.241 Y106.661 E8.41709
G1 X144.043 Y107.404 E8.44267
G1 X143.769 Y108.123 E8.46826
G1 X143.449 Y108.756 E8.49185
G1 X143.586 Y108.993 E8.50095
G1 X143.901 Y109.695 E8.52654
G1 X144.141 Y110.426 E8.55214
G1 X144.304 Y111.177 E8.57769
G1 X144.388 Y111.942 E8.60329
G1 X144.4 Y112.367 E8.61743
G1 X144.4 Y115.133 E8.70943
G1 X144.36 Y115.901 E8.73501
G1 X144.241 Y116.661 E8.76059
G1 X144.043 Y117.404 E8.78617
G1 X143.769 Y118.123 E8.81176
G1 X143.449 Y118.756 E8.83535
G1 X143.586 Y118.993 E8.84446
G1 X143.901 Y119.695 E8.87005
G1 X144.141 Y120.426 E8.89564
G1 X144.304 Y121.177 E8.9212
G1 X144.388 Y121.942 E8.9468
G1 X144.4 Y122.367 E8.96094
G1 X144.4 Y125.133 E9.05293
G1 X144.36 Y125.901 E9.07851
G1 X144.241 Y126.661 E9.1041
G1 X144.043 Y127.404 E9.12967
G1 X143.769 Y128.123 E9.15526
G1 X143.422 Y128.809 E9.18083
G1 X143.006 Y129.456 E9.20642
G1 X142.525 Y130.056 E9.23199
G1 X142.116 Y130.483 E9.25166
G1 X141.544 Y130.997 E9.27724
G1 X140.922 Y131.45 E9.30283
G1 X140.257 Y131.836 E9.3284
G1 X139.555 Y132.151 E9.354
G1 X138.824 Y132.391 E9.37959
G1 X138.073 Y132.554 E9.40515
G1 X137.308 Y132.638 E9.43074
G1 X136.883 Y132.65 E9.44488
G1 X132.067 Y132.65 E9.60507
G1 X131.829 Y132.976 E9.61849
G1 X131.657 Y133.203 E9.62796
G1 X131.398 Y133.53 E9.64184
G1 X131.193 Y133.777 E9.65251
G1 X130.758 Y134.274 E9.67448
G1 X130.469 Y134.587 E9.68865
G1 X130.229 Y134.835 E9.70013
G1 X129.935 Y135.125 E9.71386
G1 X129.727 Y135.322 E9.72339
G1 X129.417 Y135.605 E9.73735
G1 X129.191 Y135.803 E9.74735
G1 X128.864 Y136.078 E9.76156
G1 X128.635 Y136.263 E9.77135
G1 X128.31 Y136.515 E9.78503
G1 X128.09 Y136.679 E9.79415
G1 X127.743 Y136.928 E9.80836
G1 X127.484 Y137.106 E9.81881
G1 X127.139 Y137.332 E9.83253
G1 X126.884 Y137.492 E9.84254
G1 X126.291 Y137.841 E9.86543
G1 X125.924 Y138.043 E9.87936
G1 X125.637 Y138.193 E9.89013
G1 X125.261 Y138.379 E9.90408
G1 X124.982 Y138.51 E9.91434
G1 X124.599 Y138.68 E9.92827
G1 X124.354 Y138.783 E9.93711
G1 X123.963 Y138.94 E9.95113
G1 X123.681 Y139.047 E9.96116
G1 X123.278 Y139.19 E9.97538
G1 X123.005 Y139.281 E9.98495
G1 X122.604 Y139.406 E9.99892
G1 X122.273 Y139.501 E10.01038
G1 X121.645 Y139.661 E10.03193
G1 X121.236 Y139.754 E10.04588
G1 X120.926 Y139.817 E10.0564
G1 X120.505 Y139.894 E10.07064
G1 X120.208 Y139.942 E10.08064
G1 X119.797 Y140 E10.09445
G1 X119.489 Y140.037 E10.10477
G1 X118.815 Y140.099 E10.12728
G1 X118.389 Y140.126 E10.14148
G1 X118.063 Y140.14 E10.15233
G1 X117.396 Y140.148 E10.17451
G1 X116.983 Y140.142 E10.18825
G1 X116.64 Y140.129 E10.19967
G1 X116.213 Y140.103 E10.2139
G1 X115.935 Y140.081 E10.22317
G1 X115.52 Y140.04 E10.23704
G1 X115.211 Y140.003 E10.24739
G1 X114.801 Y139.945 E10.26117
G1 X114.51 Y139.898 E10.27097
G1 X114.088 Y139.821 E10.28524
G1 X113.813 Y139.765 E10.29457
G1 X113.412 Y139.676 E10.30823
G1 X113.131 Y139.608 E10.31785
G1 X112.717 Y139.499 E10.33209
G1 X112.418 Y139.414 E10.34243
G1 X112.026 Y139.293 E10.35607
G1 X111.745 Y139.2 E10.36592
G1 X111.34 Y139.057 E10.3802
G1 X111.05 Y138.947 E10.39052
G1 X110.411 Y138.686 E10.41348
G1 X110.026 Y138.515 E10.42749
G1 X109.749 Y138.385 E10.43766
G1 X109.381 Y138.203 E10.45132
G1 X109.12 Y138.067 E10.46111
G1 X108.744 Y137.862 E10.47535
G1 X108.471 Y137.706 E10.48581
G1 X108.112 Y137.49 E10.49975
G1 X107.88 Y137.344 E10.50886
G1 X107.534 Y137.118 E10.52261
G1 X107.283 Y136.947 E10.53271
G1 X106.934 Y136.698 E10.54697
G1 X106.7 Y136.524 E10.55667
G1 X106.376 Y136.273 E10.5703
G1 X106.143 Y136.085 E10.58026
G1 X105.821 Y135.814 E10.59425
G1 X105.593 Y135.613 E10.60436
G1 X105.092 Y135.149 E10.62708
G1 X104.792 Y134.855 E10.64105
G1 X104.553 Y134.611 E10.65241
G1 X104.272 Y134.309 E10.66613
G1 X104.083 Y134.097 E10.67557
G1 X103.804 Y133.773 E10.68979
G1 X103.619 Y133.549 E10.69946
G1 X103.359 Y133.222 E10.71335
G1 X103.182 Y132.991 E10.72303
G1 X102.938 Y132.658 E10.73676
G1 X98.116 Y132.65 E10.89714
G1 X97.348 Y132.61 E10.92272
G1 X96.588 Y132.491 E10.94831
G1 X95.845 Y132.293 E10.97388
G1 X95.126 Y132.019 E10.99947
G1 X94.44 Y131.672 E11.02504
G1 X93.793 Y131.256 E11.05063
G1 X93.193 Y130.775 E11.0762
G1 X92.861 Y130.46 E11.09142
G1 X92.745 Y130.343 E11.0969
G1 X92.233 Y129.769 E11.12249
G1 X91.782 Y129.146 E11.14807
G1 X91.4 Y128.479 E11.17363
G1 X91.088 Y127.776 E11.19921
G1 X90.851 Y127.044 E11.2248
G1 X90.691 Y126.291 E11.25041
G1 X90.61 Y125.526 E11.276
G1 X90.6 Y125.133 E11.28907
G1 X90.6 Y122.367 E11.38107
G1 X90.64 Y121.599 E11.40665
G1 X90.759 Y120.839 E11.43223
G1 X90.957 Y120.096 E11.45781
G1 X91.231 Y119.377 E11.4834
G1 X91.551 Y118.743 E11.50702
G1 X91.4 Y118.479 E11.51713
G1 X91.088 Y117.776 E11.54272
G1 X90.851 Y117.044 E11.56831
G1 X90.691 Y116.291 E11.59391
G1 X90.61 Y115.526 E11.6195
G1 X90.6 Y115.133 E11.63257
G1 X90.6 Y112.367 E11.72457
G1 X90.64 Y111.599 E11.75015
G1 X90.759 Y110.839 E11.77573
G1 X90.957 Y110.096 E11.80131
G1 X91.231 Y109.377 E11.8269
G1 X91.551 Y108.743 E11.85052
G1 X91.4 Y108.479 E11.86064
G1 X91.088 Y107.776 E11.88622
G1 X90.851 Y107.044 E11.91181
G1 X90.691 Y106.291 E11.93741
G1 X90.61 Y105.526 E11.963
G1 X90.6 Y105.133 E11.97607
G1 X90.6 Y102.367 E12.06807
G1 X90.64 Y101.599 E12.09365
G1 X90.759 Y100.839 E12.11924
G1 X90.957 Y100.096 E12.14481
G1 X91.231 Y99.377 E12.1704
G1 X91.578 Y98.691 E12.19597
G1 X91.994 Y98.044 E12.22156
G1 X92.475 Y97.444 E12.24713
G1 X92.884 Y97.017 E12.2668
G0 F6000 X93.167 Y97.3
G1 F1200 X93.724 Y96.8 E12.29169
G1 X94.33 Y96.363 E12.31654
G1 X94.98 Y95.992 E12.34144
G1 X95.666 Y95.693 E12.36633
G1 X96.38 Y95.469 E12.39121
G1 X97.113 Y95.322 E12.41608
G1 X98.117 Y95.25 E12.44956
G1 X109.886 Y95.25 E12.841
G1 X110.633 Y95.29 E12.86588
G1 X111.371 Y95.409 E12.89074
G1 X112.093 Y95.607 E12.91564
G1 X112.789 Y95.88 E12.94051
G1 X113.452 Y96.227 E12.9654
G1 X114.075 Y96.642 E12.99029
G1 X114.793 Y97.257 E13.02174
G1 X114.909 Y97.371 E13.02715
G1 X115.413 Y97.924 E13.05203
G1 X115.856 Y98.526 E13.07689
G1 X116.232 Y99.173 E13.10178
G1 X116.537 Y99.856 E13.12666
G1 X116.768 Y100.568 E13.15156
G1 X116.921 Y101.3 E13.17643
G1 X117.001 Y102.221 E13.20718
G1 X117.002 Y102.292 E13.20954
G1 X117.016 Y102.367 E13.21208
G1 X117.032 Y102.42 E13.21392
G1 X117.057 Y102.476 E13.21596
G1 X117.1 Y102.545 E13.21866
G1 X117.143 Y102.598 E13.22093
G1 X117.211 Y102.654 E13.22386
G1 X117.279 Y102.695 E13.2265
G1 X117.335 Y102.719 E13.22853
G1 X117.416 Y102.74 E13.23131
G1 X117.477 Y102.748 E13.23336
