;FLAVOR:Marlin
;TIME:3185
;Filament used: 1.77528m
;Layer height: 0.2
;MINX:87.015
;MINY:82.767
;MINZ:0.2
;MAXX:147.983
;MAXY:152.233
;MAXZ:37
;Generated with Cura_SteamEngine 4.6.2
M140 S60
M105
M190 S60
M104 S200
M105
M109 S200
M82 ;absolute extrusion mode
; Ender 3 Custom Start G-code
G92 E0 ; Reset Extruder
G28 ; Home all axes
G1 Z2.0 F3000 ; Move Z Axis up little to prevent scratching of Heat Bed
G1 X0.1 Y20 Z0.3 F5000.0 ; Move to start position
G1 X0.1 Y200.0 Z0.3 F1500.0 E15 ; Draw the first line
G1 X0.4 Y200.0 Z0.3 F5000.0 ; Move to side a little
G1 X0.4 Y20 Z0.3 F1500.0 E30 ; Draw the second line
G92 E0 ; Reset Extruder
G1 Z2.0 F3000 ; Move Z Axis up little to prevent scratching of Heat Bed
G1 X5 Y20 Z0.3 F5000.0 ; Move over to prevent blob squish
G92 E0
G92 E0
G1 F1500 E-6.5
;LAYER_COUNT:185
;LAYER:0
M107
G0 F6000 X118.463 Y83.582 Z0.2
;TYPE:SKIRT
G1 F1500 E0
G1 F1200 X118.863 Y83.598 E0.01331
G1 X119.642 Y83.644 E0.03927
G1 X120.033 Y83.674 E0.05231
G1 X120.739 Y83.743 E0.07591
G1 X121.114 Y83.787 E0.08846
G1 X121.868 Y83.889 E0.11377
G1 X122.262 Y83.95 E0.12703
G1 X122.918 Y84.065 E0.14918
G1 X123.29 Y84.137 E0.16179
G1 X124.174 Y84.326 E0.19185
G1 X124.562 Y84.417 E0.20511
G1 X125.158 Y84.569 E0.22556
G1 X125.511 Y84.666 E0.23774
G1 X126.209 Y84.871 E0.26194
G1 X126.582 Y84.989 E0.27495
G1 X127.258 Y85.216 E0.29867
G1 X127.622 Y85.345 E0.31151
G1 X128.441 Y85.655 E0.34064
G1 X128.808 Y85.803 E0.3538
G1 X129.351 Y86.033 E0.37341
G1 X129.698 Y86.188 E0.38605
G1 X130.454 Y86.542 E0.41382
G1 X130.818 Y86.721 E0.42731
G1 X131.471 Y87.059 E0.45176
G1 X131.82 Y87.248 E0.46496
G1 X132.466 Y87.615 E0.48968
G1 X132.774 Y87.797 E0.50157
G1 X133.385 Y88.173 E0.52544
G1 X133.728 Y88.394 E0.53901
G1 X134.359 Y88.818 E0.56429
G1 X134.682 Y89.044 E0.5774
G1 X135.296 Y89.492 E0.60268
G1 X135.601 Y89.724 E0.61543
G1 X136.174 Y90.176 E0.6397
G1 X136.484 Y90.43 E0.65303
G1 X137.076 Y90.936 E0.67894
G1 X137.344 Y91.174 E0.69086
G1 X137.828 Y91.618 E0.7127
G1 X138.127 Y91.903 E0.72644
G1 X138.724 Y92.497 E0.75445
G1 X138.981 Y92.762 E0.76673
G1 X139.412 Y93.223 E0.78772
G1 X139.687 Y93.529 E0.8014
G1 X140.249 Y94.181 E0.83003
G1 X140.494 Y94.476 E0.84279
G1 X140.926 Y95.017 E0.86581
G1 X141.168 Y95.333 E0.87905
G1 X141.593 Y95.91 E0.90289
G1 X141.81 Y96.217 E0.91539
G1 X142.263 Y96.882 E0.94215
G1 X142.483 Y97.218 E0.95551
G1 X142.853 Y97.81 E0.97873
G1 X143.053 Y98.144 E0.99168
G1 X143.433 Y98.807 E1.0171
G1 X143.609 Y99.129 E1.0293
G1 X143.93 Y99.739 E1.05223
G1 X144.107 Y100.092 E1.06536
G1 X144.473 Y100.858 E1.0936
G1 X144.639 Y101.223 E1.10693
G1 X144.877 Y101.776 E1.12696
G1 X145.025 Y102.137 E1.13994
G1 X145.349 Y102.977 E1.16988
G1 X145.484 Y103.351 E1.1831
G1 X145.69 Y103.954 E1.2043
G1 X145.803 Y104.305 E1.21656
G1 X146.025 Y105.041 E1.24213
G1 X146.134 Y105.427 E1.25547
G1 X146.323 Y106.156 E1.28052
G1 X146.409 Y106.518 E1.2929
G1 X146.578 Y107.284 E1.31899
G1 X146.661 Y107.702 E1.33316
G1 X146.784 Y108.396 E1.3566
G1 X146.841 Y108.748 E1.36846
G1 X146.939 Y109.441 E1.39174
G1 X146.987 Y109.839 E1.40507
G1 X147.068 Y110.637 E1.43175
G1 X147.099 Y111.019 E1.4445
G1 X147.148 Y111.789 E1.47016
G1 X147.166 Y112.178 E1.48311
G1 X147.181 Y112.769 E1.50278
G1 X147.183 Y113.154 E1.51558
G1 X147.172 Y114.041 E1.54509
G1 X147.16 Y114.437 E1.55826
G1 X147.123 Y115.159 E1.58231
G1 X147.095 Y115.55 E1.59535
G1 X147.029 Y116.284 E1.61986
G1 X146.985 Y116.682 E1.63318
G1 X146.887 Y117.438 E1.65853
G1 X146.834 Y117.799 E1.67067
G1 X146.727 Y118.443 E1.69238
G1 X146.655 Y118.829 E1.70544
G1 X146.482 Y119.669 E1.73396
G1 X146.391 Y120.07 E1.74764
G1 X146.23 Y120.718 E1.76985
G1 X146.136 Y121.071 E1.782
G1 X145.918 Y121.831 E1.8083
G1 X145.797 Y122.224 E1.82197
G1 X145.567 Y122.919 E1.84632
G1 X145.44 Y123.279 E1.85902
G1 X145.183 Y123.968 E1.88348
G1 X145.036 Y124.338 E1.89672
G1 X144.76 Y124.998 E1.92051
G1 X144.61 Y125.34 E1.93293
G1 X144.265 Y126.087 E1.9603
G1 X144.092 Y126.442 E1.97344
G1 X143.779 Y127.056 E1.99636
G1 X143.597 Y127.399 E2.00927
G1 X143.259 Y128.004 E2.03232
G1 X143.061 Y128.342 E2.04535
G1 X142.621 Y129.063 E2.07344
G1 X142.42 Y129.38 E2.08593
G1 X142.054 Y129.933 E2.10798
G1 X141.818 Y130.273 E2.12175
G1 X141.343 Y130.931 E2.14874
G1 X141.112 Y131.239 E2.16155
G1 X140.663 Y131.814 E2.18581
G1 X140.424 Y132.108 E2.19841
G1 X139.969 Y132.648 E2.2219
G1 X139.716 Y132.937 E2.23468
G1 X138.336 Y134.455 E2.30291
G1 X137.121 Y135.78 E2.3627
G1 X135.476 Y137.678 E2.44624
G1 X133.84 Y139.677 E2.53215
G1 X132.324 Y141.638 E2.6146
G1 X130.786 Y143.752 E2.70155
G1 X130.083 Y144.768 E2.74264
G1 X129.881 Y145.049 E2.75415
G1 X129.589 Y145.442 E2.77043
G1 X129.155 Y145.986 E2.79358
G1 X128.949 Y146.227 E2.80413
G1 X128.471 Y146.749 E2.82767
G1 X128.188 Y147.037 E2.8411
G1 X127.636 Y147.559 E2.86636
G1 X127.385 Y147.779 E2.87747
G1 X126.822 Y148.238 E2.90163
G1 X126.5 Y148.482 E2.91506
G1 X125.818 Y148.956 E2.94269
G1 X125.496 Y149.161 E2.95538
G1 X124.819 Y149.556 E2.98145
G1 X124.491 Y149.731 E2.99382
G1 X123.423 Y150.224 E3.03294
G1 X122.678 Y150.517 E3.05957
G1 X121.559 Y150.884 E3.09874
G1 X121.261 Y150.963 E3.10899
G1 X120.607 Y151.114 E3.13131
G1 X120.224 Y151.189 E3.1443
G1 X119.464 Y151.308 E3.16988
G1 X119.101 Y151.351 E3.18204
G1 X118.338 Y151.413 E3.2075
G1 X117.942 Y151.43 E3.22068
G1 X117.179 Y151.434 E3.24606
G1 X116.866 Y151.424 E3.25648
G1 X116.172 Y151.378 E3.27961
G1 X115.774 Y151.338 E3.29291
G1 X115.001 Y151.23 E3.31887
G1 X114.637 Y151.165 E3.33117
G1 X113.887 Y151.002 E3.3567
G1 X113.518 Y150.907 E3.36937
G1 X112.32 Y150.518 E3.41127
G1 X111.554 Y150.216 E3.43865
G1 X110.436 Y149.695 E3.47968
G1 X110.185 Y149.559 E3.48917
G1 X109.738 Y149.302 E3.50632
G1 X109.431 Y149.115 E3.51828
G1 X108.732 Y148.649 E3.54622
G1 X108.386 Y148.397 E3.56045
G1 X107.755 Y147.899 E3.58719
G1 X107.504 Y147.684 E3.59818
G1 X106.979 Y147.2 E3.62193
G1 X106.694 Y146.919 E3.63524
G1 X106.157 Y146.348 E3.66132
G1 X105.931 Y146.088 E3.67277
G1 X105.502 Y145.56 E3.6954
G1 X105.276 Y145.262 E3.70784
G1 X103.408 Y142.627 E3.81527
G1 X101.846 Y140.55 E3.90171
G1 X100.294 Y138.602 E3.98455
G1 X98.671 Y136.681 E4.06819
G1 X95.31 Y132.966 E4.23481
G1 X95.082 Y132.706 E4.24632
G1 X94.543 Y132.068 E4.27409
G1 X94.301 Y131.769 E4.28689
G1 X93.949 Y131.319 E4.30589
G1 X93.72 Y131.015 E4.31855
G1 X93.17 Y130.255 E4.34975
G1 X92.929 Y129.907 E4.36383
G1 X92.584 Y129.386 E4.38461
G1 X92.372 Y129.053 E4.39774
G1 X91.944 Y128.349 E4.42515
G1 X91.759 Y128.03 E4.43741
G1 X91.397 Y127.383 E4.46207
G1 X91.224 Y127.062 E4.4742
G1 X90.957 Y126.542 E4.49364
G1 X90.774 Y126.167 E4.50752
G1 X90.382 Y125.32 E4.53856
G1 X90.226 Y124.964 E4.55149
G1 X89.966 Y124.341 E4.57394
G1 X89.821 Y123.975 E4.58704
G1 X89.565 Y123.288 E4.61142
G1 X89.436 Y122.919 E4.62442
G1 X89.197 Y122.194 E4.64981
G1 X89.088 Y121.845 E4.66197
G1 X88.89 Y121.163 E4.68559
G1 X88.783 Y120.761 E4.69943
G1 X88.601 Y120.023 E4.72471
G1 X88.516 Y119.651 E4.7374
G1 X88.361 Y118.903 E4.76281
G1 X88.291 Y118.528 E4.7755
G1 X88.167 Y117.792 E4.80032
G1 X88.107 Y117.388 E4.81391
G1 X88.009 Y116.62 E4.83966
G1 X87.969 Y116.258 E4.85177
G1 X87.913 Y115.646 E4.87221
G1 X87.885 Y115.249 E4.88545
G1 X87.836 Y114.311 E4.91669
G1 X87.823 Y113.933 E4.92927
G1 X87.815 Y113.404 E4.94686
G1 X87.817 Y113.019 E4.95967
G1 X87.837 Y112.136 E4.98905
G1 X87.855 Y111.72 E5.00289
G1 X87.9 Y111.012 E5.02649
G1 X87.93 Y110.643 E5.0388
G1 X88.005 Y109.894 E5.06384
G1 X88.053 Y109.495 E5.07721
G1 X88.154 Y108.774 E5.10142
G1 X88.214 Y108.395 E5.11418
G1 X88.341 Y107.684 E5.13821
G1 X88.419 Y107.292 E5.1515
G1 X88.586 Y106.531 E5.17741
G1 X88.678 Y106.149 E5.19048
G1 X88.87 Y105.411 E5.21585
G1 X88.97 Y105.053 E5.22821
G1 X89.173 Y104.375 E5.25175
G1 X89.295 Y103.994 E5.26505
G1 X89.525 Y103.323 E5.28865
G1 X89.657 Y102.96 E5.30149
G1 X89.964 Y102.164 E5.32987
G1 X90.116 Y101.791 E5.34326
G1 X90.369 Y101.205 E5.36449
G1 X90.523 Y100.866 E5.37688
G1 X90.866 Y100.145 E5.40343
G1 X91.041 Y99.796 E5.41642
G1 X91.407 Y99.097 E5.44266
G1 X91.599 Y98.747 E5.45594
G1 X91.915 Y98.197 E5.47704
G1 X92.104 Y97.881 E5.48928
G1 X92.518 Y97.217 E5.51531
G1 X92.741 Y96.875 E5.52889
G1 X93.18 Y96.23 E5.55484
G1 X93.401 Y95.917 E5.56758
G1 X93.827 Y95.339 E5.59147
G1 X94.068 Y95.026 E5.6046
G1 X94.528 Y94.45 E5.62912
G1 X94.769 Y94.159 E5.64169
G1 X95.253 Y93.597 E5.66636
G1 X95.511 Y93.308 E5.67924
G1 X96.026 Y92.754 E5.7044
G1 X96.312 Y92.459 E5.71807
G1 X96.839 Y91.936 E5.74276
G1 X97.108 Y91.679 E5.75513
G1 X97.663 Y91.167 E5.78025
G1 X97.961 Y90.902 E5.79351
G1 X98.49 Y90.451 E5.81663
G1 X98.783 Y90.211 E5.82923
G1 X99.389 Y89.732 E5.85492
G1 X99.704 Y89.493 E5.86807
G1 X100.343 Y89.027 E5.89438
G1 X100.664 Y88.802 E5.90742
G1 X101.228 Y88.423 E5.93002
G1 X101.556 Y88.212 E5.94299
G1 X102.205 Y87.811 E5.96836
G1 X102.535 Y87.615 E5.98113
G1 X103.177 Y87.251 E6.00567
G1 X103.522 Y87.064 E6.01873
G1 X104.189 Y86.719 E6.0437
G1 X104.539 Y86.547 E6.05667
G1 X105.248 Y86.214 E6.08273
G1 X105.605 Y86.054 E6.09574
G1 X106.221 Y85.793 E6.11799
G1 X106.571 Y85.653 E6.13053
G1 X107.288 Y85.38 E6.15605
G1 X107.681 Y85.239 E6.16993
G1 X108.482 Y84.971 E6.19803
G1 X108.852 Y84.855 E6.21092
G1 X109.477 Y84.672 E6.23258
G1 X109.852 Y84.57 E6.24551
G1 X110.686 Y84.36 E6.27411
G1 X111.062 Y84.273 E6.28695
G1 X111.713 Y84.135 E6.30908
G1 X112.134 Y84.055 E6.32334
G1 X112.912 Y83.924 E6.34958
G1 X113.26 Y83.871 E6.36128
G1 X113.921 Y83.783 E6.38346
G1 X114.316 Y83.738 E6.39669
G1 X115.117 Y83.663 E6.42344
G1 X115.512 Y83.634 E6.43662
G1 X116.3 Y83.591 E6.46287
G1 X116.682 Y83.577 E6.47558
G1 X117.328 Y83.566 E6.49707
G1 X117.703 Y83.567 E6.50954
G1 X118.463 Y83.582 E6.53482
G0 F6000 X118.887 Y83.198
G1 F1200 X119.666 Y83.244 E6.56078
G1 X120.072 Y83.276 E6.57432
G1 X120.778 Y83.345 E6.59792
G1 X121.168 Y83.391 E6.61098
G1 X121.922 Y83.493 E6.63629
G1 X122.331 Y83.556 E6.65005
G1 X122.987 Y83.671 E6.6722
G1 X123.373 Y83.746 E6.68528
G1 X124.257 Y83.935 E6.71535
G1 X124.661 Y84.03 E6.72915
G1 X125.257 Y84.182 E6.74961
G1 X125.624 Y84.283 E6.76227
G1 X126.322 Y84.488 E6.78646
G1 X126.709 Y84.609 E6.79995
G1 X127.385 Y84.836 E6.82367
G1 X127.763 Y84.971 E6.83702
G1 X128.582 Y85.281 E6.86614
G1 X128.964 Y85.434 E6.87983
G1 X129.507 Y85.664 E6.89944
G1 X129.868 Y85.825 E6.91259
G1 X130.624 Y86.179 E6.94036
G1 X131.002 Y86.365 E6.95437
G1 X131.655 Y86.703 E6.97882
G1 X132.018 Y86.9 E6.99256
G1 X132.664 Y87.267 E7.01727
G1 X132.983 Y87.456 E7.0296
G1 X133.594 Y87.832 E7.05346
G1 X133.951 Y88.062 E7.06759
G1 X134.582 Y88.486 E7.09287
G1 X134.918 Y88.721 E7.10651
G1 X135.532 Y89.169 E7.13179
G1 X135.849 Y89.41 E7.14504
G1 X136.422 Y89.862 E7.16931
G1 X136.744 Y90.126 E7.18316
G1 X137.336 Y90.632 E7.20906
G1 X137.615 Y90.879 E7.22146
G1 X138.099 Y91.323 E7.2433
G1 X138.409 Y91.62 E7.25758
G1 X139.006 Y92.214 E7.28559
G1 X139.273 Y92.489 E7.29834
G1 X139.704 Y92.95 E7.31933
G1 X139.99 Y93.268 E7.33355
G1 X140.552 Y93.92 E7.36218
G1 X140.806 Y94.227 E7.37544
G1 X141.238 Y94.768 E7.39846
G1 X141.49 Y95.096 E7.41222
G1 X141.915 Y95.673 E7.43606
G1 X142.141 Y95.991 E7.44903
G1 X142.594 Y96.656 E7.47579
G1 X142.822 Y97.006 E7.48969
G1 X143.192 Y97.598 E7.51291
G1 X143.4 Y97.945 E7.52636
G1 X143.78 Y98.608 E7.55178
G1 X143.963 Y98.943 E7.56448
G1 X144.284 Y99.553 E7.5874
G1 X144.468 Y99.919 E7.60103
G1 X144.834 Y100.685 E7.62926
G1 X145.007 Y101.065 E7.64315
G1 X145.245 Y101.618 E7.66317
G1 X145.398 Y101.993 E7.67664
G1 X145.722 Y102.833 E7.70659
G1 X145.863 Y103.221 E7.72032
G1 X146.069 Y103.824 E7.74151
G1 X146.186 Y104.19 E7.75429
G1 X146.408 Y104.926 E7.77986
G1 X146.521 Y105.327 E7.79372
G1 X146.71 Y106.056 E7.81877
G1 X146.8 Y106.432 E7.83163
G1 X146.969 Y107.198 E7.85772
G1 X147.055 Y107.632 E7.87243
G1 X147.178 Y108.326 E7.89587
G1 X147.237 Y108.692 E7.9082
G1 X147.335 Y109.385 E7.93148
G1 X147.385 Y109.799 E7.94535
G1 X147.466 Y110.597 E7.97203
G1 X147.499 Y110.994 E7.98528
G1 X147.548 Y111.764 E8.01094
G1 X147.566 Y112.168 E8.02439
G1 X147.581 Y112.759 E8.04406
G1 X147.583 Y113.159 E8.05736
G1 X147.572 Y114.046 E8.08686
G1 X147.559 Y114.458 E8.10057
G1 X147.522 Y115.18 E8.12462
G1 X147.493 Y115.586 E8.13816
G1 X147.427 Y116.32 E8.16267
G1 X147.382 Y116.734 E8.17652
G1 X147.284 Y117.49 E8.20188
G1 X147.229 Y117.864 E8.21445
G1 X147.122 Y118.508 E8.23616
G1 X147.047 Y118.909 E8.24973
G1 X146.874 Y119.749 E8.27825
G1 X146.779 Y120.167 E8.29251
G1 X146.618 Y120.815 E8.31472
G1 X146.52 Y121.182 E8.32735
G1 X146.302 Y121.942 E8.35365
G1 X146.176 Y122.349 E8.36782
G1 X145.946 Y123.044 E8.39217
G1 X145.815 Y123.419 E8.40538
G1 X145.558 Y124.108 E8.42984
G1 X145.405 Y124.493 E8.44362
G1 X145.129 Y125.153 E8.46741
G1 X144.973 Y125.507 E8.48028
G1 X144.628 Y126.254 E8.50765
G1 X144.449 Y126.624 E8.52132
G1 X144.136 Y127.238 E8.54424
G1 X143.946 Y127.594 E8.55766
G1 X143.608 Y128.199 E8.58071
G1 X143.402 Y128.551 E8.59428
G1 X142.962 Y129.272 E8.62237
G1 X142.753 Y129.6 E8.63531
G1 X142.387 Y130.153 E8.65736
G1 X142.143 Y130.507 E8.67166
G1 X141.668 Y131.165 E8.69865
G1 X141.428 Y131.485 E8.71196
G1 X140.979 Y132.06 E8.73622
G1 X140.73 Y132.366 E8.74934
G1 X140.275 Y132.906 E8.77283
G1 X140.012 Y133.206 E8.7861
G1 X138.632 Y134.724 E8.85433
G1 X137.417 Y136.049 E8.91413
G1 X135.786 Y137.93 E8.99693
G1 X134.168 Y139.908 E9.08193
G1 X132.619 Y141.912 E9.16617
G1 X131.132 Y143.955 E9.25021
G1 X130.412 Y144.996 E9.29231
G1 X130.202 Y145.288 E9.30428
G1 X129.91 Y145.681 E9.32056
G1 X129.46 Y146.246 E9.34458
G1 X129.254 Y146.487 E9.35513
G1 X128.757 Y147.029 E9.37959
G1 X128.474 Y147.317 E9.39302
G1 X127.9 Y147.859 E9.41927
G1 X127.649 Y148.079 E9.43038
G1 X127.064 Y148.556 E9.45548
G1 X126.742 Y148.8 E9.46892
G1 X126.033 Y149.294 E9.49766
G1 X125.711 Y149.499 E9.51036
G1 X125.008 Y149.909 E9.53742
G1 X124.68 Y150.084 E9.54979
G1 X123.57 Y150.597 E9.59046
G1 X122.825 Y150.89 E9.61709
G1 X121.661 Y151.271 E9.65782
G1 X121.363 Y151.35 E9.66808
G1 X120.684 Y151.506 E9.69125
G1 X120.301 Y151.581 E9.70423
G1 X119.511 Y151.705 E9.73083
G1 X119.148 Y151.748 E9.74298
G1 X118.356 Y151.812 E9.76941
G1 X117.96 Y151.829 E9.78259
G1 X117.167 Y151.834 E9.80897
G1 X116.854 Y151.824 E9.81939
G1 X116.132 Y151.776 E9.84345
G1 X115.734 Y151.736 E9.85676
G1 X114.931 Y151.624 E9.88372
G1 X114.567 Y151.559 E9.89602
G1 X113.787 Y151.389 E9.92257
G1 X113.418 Y151.294 E9.93525
G1 X112.173 Y150.89 E9.97878
G1 X111.407 Y150.588 E10.00617
G1 X110.245 Y150.047 E10.0488
G1 X109.994 Y149.911 E10.05829
G1 X109.53 Y149.644 E10.0761
G1 X109.223 Y149.457 E10.08805
G1 X108.496 Y148.972 E10.11712
G1 X108.15 Y148.72 E10.13136
G1 X107.495 Y148.202 E10.15913
G1 X107.244 Y147.987 E10.17013
G1 X106.698 Y147.485 E10.19479
G1 X106.413 Y147.204 E10.20811
G1 X105.855 Y146.61 E10.23521
G1 X105.629 Y146.35 E10.24667
G1 X105.183 Y145.801 E10.2702
G1 X104.957 Y145.503 E10.28264
G1 X104.594 Y144.994 E10.30343
G1 X103.061 Y142.829 E10.39166
G1 X101.56 Y140.834 E10.4747
G1 X99.977 Y138.847 E10.5592
G1 X98.366 Y136.94 E10.64223
G1 X95.013 Y133.234 E10.80845
G1 X94.777 Y132.964 E10.82038
G1 X94.238 Y132.326 E10.84816
G1 X93.986 Y132.016 E10.86144
G1 X93.634 Y131.566 E10.88045
G1 X93.396 Y131.249 E10.89363
G1 X92.846 Y130.489 E10.92483
G1 X92.595 Y130.127 E10.93948
G1 X92.25 Y129.606 E10.96027
G1 X92.031 Y129.261 E10.97386
G1 X91.603 Y128.557 E11.00126
G1 X91.409 Y128.226 E11.01402
G1 X91.047 Y127.579 E11.03868
G1 X90.868 Y127.245 E11.05129
G1 X90.601 Y126.725 E11.07073
G1 X90.411 Y126.335 E11.08516
G1 X90.019 Y125.488 E11.1162
G1 X89.857 Y125.118 E11.12963
G1 X89.597 Y124.495 E11.15209
G1 X89.446 Y124.114 E11.16572
G1 X89.19 Y123.427 E11.1901
G1 X89.056 Y123.045 E11.20357
G1 X88.817 Y122.32 E11.22896
G1 X88.704 Y121.956 E11.24163
G1 X88.506 Y121.274 E11.26525
G1 X88.394 Y120.857 E11.27961
G1 X88.212 Y120.119 E11.30489
G1 X88.125 Y119.732 E11.31809
G1 X87.97 Y118.984 E11.34349
G1 X87.896 Y118.594 E11.3567
G1 X87.772 Y117.858 E11.38152
G1 X87.71 Y117.439 E11.39561
G1 X87.612 Y116.671 E11.42136
G1 X87.571 Y116.295 E11.43394
G1 X87.515 Y115.683 E11.45438
G1 X87.485 Y115.27 E11.46815
